; generated by PrusaSlicer 2.4.2+x64 on 2022-07-09 at 03:05:20 UTC

; 

; external perimeters extrusion width = 0.45mm
; perimeters extrusion width = 0.45mm
; infill extrusion width = 0.45mm
; solid infill extrusion width = 0.45mm
; top infill extrusion width = 0.40mm
; first layer extrusion width = 0.42mm

M107
;TYPE:Custom
G90 ; use absolute coordinates
M83 ; extruder relative mode
M140 S60 ; set final bed temp
M104 S150 ; set temporary nozzle temp to prevent oozing during homing
G4 S10 ; allow partial nozzle warmup
G28 ; home all axis
G1 Z50 F240
G1 X2 Y10 F3000
M104 S225 ; set final nozzle temp
M190 S60 ; wait for bed temp to stabilize
M109 S225 ; wait for nozzle temp to stabilize
G1 Z0.28 F240
G92 E0
G1 Y140 E10 F1500 ; prime the nozzle
G1 X2.3 F5000
G92 E0
G1 Y10 E10 F1200 ; prime the nozzle
G92 E0
G21 ; set units to millimeters
G90 ; use absolute coordinates
M83 ; use relative distances for extrusion
; Filament gcode
M107
;LAYER_CHANGE
;Z:0.2
;HEIGHT:0.2
;BEFORE_LAYER_CHANGE
G92 E0
;0.2


G1 E-5 F3600
G1 Z.2 F9000
;AFTER_LAYER_CHANGE
;0.2
G1 X18.107 Y17.203
G1 E5 F2400
M204 S500
;TYPE:Skirt/Brim
;WIDTH:0.42
G1 F1200
G1 X20 Y16.623 E.06207
G1 X200 Y16.623 E5.64377
G1 X201.583 Y17.017 E.05115
G1 X202.797 Y18.107 E.05115
G1 X203.377 Y20 E.06207
G1 X203.377 Y200 E5.64377
G1 X202.983 Y201.583 E.05115
G1 X201.893 Y202.797 E.05115
G1 X200 Y203.377 E.06207
G1 X20 Y203.377 E5.64377
G1 X18.417 Y202.983 E.05115
G1 X17.203 Y201.893 E.05115
G1 X16.623 Y200 E.06207
G1 X16.623 Y20 E5.64377
G1 X17.017 Y18.417 E.05115
G1 X18.067 Y17.248 E.04927
G1 E-3.5 F3600
;WIPE_START
G1 F7200
G1 X20 Y16.623 E-.96489
G1 X20.969 Y16.623 E-.46011
;WIPE_END
G1 E-.075 F3600
G1 X100.686 Y119.801 F9000
G1 E5 F2400
;TYPE:External perimeter
G1 F1200
G1 X101.263 Y119.724 E.01825
G1 X101.774 Y119.695 E.01607
G1 X102.777 Y119.69 E.03144
G1 X117.734 Y119.69 E.46897
G1 X118.745 Y119.724 E.03171
G1 X119.324 Y119.801 E.01832
G1 X180.199 Y180.676 E2.69927
G1 X180.276 Y181.247 E.01809
G1 X180.305 Y181.755 E.01594
G1 X180.31 Y188.177 E.20135
G1 X180.305 Y189.17 E.03113
G1 X180.276 Y189.677 E.01592
G1 X180.183 Y190.36 E.02162
G1 X39.817 Y190.36 E4.40111
G1 X39.724 Y189.677 E.02161
G1 X39.695 Y189.17 E.01592
G1 X39.695 Y181.763 E.23223
G1 X39.724 Y181.257 E.01591
G1 X39.801 Y180.686 E.01808
G1 X100.643 Y119.844 E2.69783
G1 X100.754 Y119.407 F9000
G1 X100.646 Y119.426
;TYPE:Perimeter
G1 F1200
G1 X100.686 Y118.463 E.03023
G1 X100.676 Y101.104 E.54426
G1 X100.643 Y100.583 E.01639
G1 X101.164 Y100.653 E.01649
G1 X102.199 Y100.687 E.03247
G1 X117.652 Y100.687 E.48451
G1 X118.674 Y100.664 E.03205
G1 X119.35 Y100.604 E.02128
G1 X119.314 Y101.471 E.0272
G1 X119.323 Y118.948 E.54798
G1 X119.354 Y119.425 E.01499
G1 X118.776 Y119.347 E.01826
G1 X117.74 Y119.313 E.0325
G1 X101.763 Y119.318 E.50096
G1 X101.227 Y119.348 E.01683
G1 X100.705 Y119.418 E.01651
G1 X100.2 Y120.033 F9000
;TYPE:External perimeter
G1 F1200
G1 X40.031 Y180.202 E2.66801
G1 X38.968 Y180.299 E.03345
G1 X31.622 Y180.305 E.23035
G1 X31.119 Y180.276 E.0158
G1 X30.44 Y180.183 E.02147
G1 X30.44 Y39.817 E4.40109
G1 X31.115 Y39.724 E.02136
G1 X31.614 Y39.695 E.01567
G1 X32.59 Y39.69 E.03061
G1 X38.416 Y39.692 E.18268
G1 X39.399 Y39.734 E.03083
G1 X39.964 Y39.8 E.01784
G1 X100.2 Y100.036 E2.67098
G1 X100.267 Y100.609 E.01809
G1 X100.299 Y101.116 E.01593
G1 X100.309 Y118.455 E.54364
G1 X100.267 Y119.457 E.03146
G1 X100.207 Y119.973 E.01628
G1 X100.392 Y120.384 F9000
G1 E-3.5 F3600
;WIPE_START
G1 F7200
G1 X98.087 Y122.095 E-1.425
;WIPE_END
G1 E-.075 F3600
G1 X100.617 Y100.199 F9000
G1 E5 F2400
G1 F1200
G1 X39.802 Y39.384 E2.69663
G1 X39.724 Y38.832 E.01748
G1 X39.695 Y38.343 E.01535
G1 X39.69 Y32.646 E.17862
G1 X39.695 Y31.692 E.02993
G1 X39.724 Y31.203 E.01533
G1 X39.818 Y30.54 E.021
G1 X180.183 Y30.54 E4.40108
G1 X180.276 Y31.226 E.0217
G1 X180.31 Y32.227 E.03141
G1 X180.31 Y37.661 E.17038
G1 X180.287 Y38.657 E.03125
G1 X180.234 Y39.254 E.0188
G1 X179.792 Y39.644 E.01846
G1 X119.644 Y99.792 E2.66707
G1 X119.254 Y100.234 E.01847
G1 X118.653 Y100.287 E.01894
G1 X117.648 Y100.31 E.03153
G1 X102.205 Y100.31 E.48418
G1 X101.195 Y100.276 E.03168
G1 X100.676 Y100.207 E.01643
G1 X100.266 Y100.391 F9000
G1 E-3.5 F3600
;WIPE_START
G1 F7200
G1 X98.554 Y98.086 E-1.425
;WIPE_END
G1 E-.075 F3600
G1 X39.417 Y39.358 F9000
G1 E5 F2400
;TYPE:Perimeter
G1 F1200
G1 X38.425 Y39.315 E.03116
G1 X31.602 Y39.318 E.21392
G1 X31.078 Y39.348 E.01644
G1 X30.349 Y39.449 E.02309
G1 X29.622 Y39.348 E.02299
G1 X28.624 Y39.313 E.03131
G1 X20.687 Y39.313 E.24887
G1 X20.687 Y20.687 E.584
G1 X39.313 Y20.687 E.584
G1 X39.318 Y29.202 E.26697
G1 X39.348 Y29.724 E.01639
G1 X39.449 Y30.452 E.02305
G1 X39.349 Y31.166 E.0226
G1 X39.318 Y31.679 E.01613
G1 X39.318 Y38.354 E.20928
G1 X39.349 Y38.869 E.01617
G1 X39.409 Y39.298 E.01359
G1 E-3.5 F3600
;WIPE_START
G1 F7200
G1 X38.425 Y39.315 E-.46769
G1 X36.409 Y39.316 E-.95731
;WIPE_END
G1 E-.075 F3600
G1 X39.428 Y180.636 F9000
G1 E5 F2400
G1 F1200
G1 X39.348 Y181.221 E.01852
G1 X39.318 Y181.752 E.01667
G1 X39.318 Y189.181 E.23294
G1 X39.348 Y189.713 E.01671
G1 X39.448 Y190.451 E.02336
G1 X39.348 Y191.18 E.02306
G1 X39.318 Y191.707 E.01654
G1 X39.313 Y199.313 E.23849
G1 X20.687 Y199.313 E.58401
G1 X20.687 Y180.687 E.584
G1 X28.624 Y180.687 E.24887
G1 X29.622 Y180.652 E.03131
G1 X30.348 Y180.551 E.02297
G1 X31.082 Y180.652 E.02325
G1 X31.611 Y180.682 E.01661
G1 X38.985 Y180.676 E.23122
G1 X39.368 Y180.641 E.01204
G1 E-3.5 F3600
;WIPE_START
G1 F7200
G1 X39.348 Y181.221 E-.2756
G1 X39.318 Y181.752 E-.25255
G1 X39.318 Y183.64 E-.89686
;WIPE_END
G1 E-.075 F3600
G1 X180.575 Y180.644 F9000
G1 E5 F2400
G1 F1200
G1 X181.5 Y180.685 E.02905
G1 X189.208 Y180.682 E.24165
G1 X189.728 Y180.652 E.01634
G1 X190.448 Y180.551 E.02281
G1 X191.18 Y180.652 E.02316
G1 X191.707 Y180.682 E.01654
G1 X199.313 Y180.687 E.23849
G1 X199.313 Y199.313 E.58401
G1 X180.687 Y199.313 E.58401
G1 X180.682 Y191.707 E.23849
G1 X180.652 Y191.18 E.01654
G1 X180.552 Y190.451 E.02306
G1 X180.652 Y189.712 E.02338
G1 X180.682 Y189.181 E.01669
G1 X180.682 Y181.744 E.23318
G1 X180.652 Y181.212 E.01673
G1 X180.583 Y180.704 E.01607
G1 E-3.5 F3600
;WIPE_START
G1 F7200
G1 X181.5 Y180.685 E-.43594
G1 X183.583 Y180.684 E-.98906
;WIPE_END
G1 E-.075 F3600
G1 X190.36 Y180.183 F9000
G1 E5 F2400
;TYPE:External perimeter
G1 F1200
G1 X189.691 Y180.276 E.02119
G1 X189.197 Y180.305 E.01552
G1 X181.509 Y180.308 E.24104
G1 X180.537 Y180.265 E.0305
G1 X179.977 Y180.2 E.01767
G1 X119.8 Y120.023 E2.66837
G1 X119.733 Y119.446 E.0182
G1 X119.701 Y118.936 E.01604
G1 X119.691 Y101.478 E.54737
G1 X119.732 Y100.469 E.03167
G1 X119.8 Y99.89 E.01827
G1 X179.892 Y39.798 E2.6646
G1 X180.945 Y39.702 E.03313
G1 X189.188 Y39.695 E.25848
G1 X189.686 Y39.724 E.01565
G1 X190.36 Y39.817 E.02132
G1 X190.36 Y180.123 E4.39919
G1 X190.397 Y180.581 F9000
G1 E-3.5 F3600
;WIPE_START
G1 F7200
G1 X189.691 Y180.276 E-.3261
G1 X189.197 Y180.305 E-.23517
G1 X187.378 Y180.305 E-.86373
;WIPE_END
G1 E-.075 F3600
G1 X190.489 Y39.443 F9000
G1 E5 F2400
;TYPE:Perimeter
G1 F1200
G1 X189.723 Y39.348 E.02419
G1 X189.199 Y39.318 E.01645
G1 X182.405 Y39.313 E.21304
G1 X180.926 Y39.325 E.04637
G1 X180.603 Y39.354 E.01016
G1 X180.664 Y38.678 E.02127
G1 X180.687 Y37.665 E.03178
G1 X180.687 Y32.221 E.17071
G1 X180.653 Y31.194 E.0322
G1 X180.552 Y30.448 E.02362
G1 X180.653 Y29.717 E.02313
G1 X180.687 Y28.71 E.03159
G1 X180.687 Y20.687 E.25155
G1 X199.313 Y20.687 E.584
G1 X199.313 Y39.313 E.58401
G1 X191.707 Y39.318 E.23849
G1 X191.18 Y39.348 E.01654
G1 X190.548 Y39.435 E.02
G1 X190.54 Y39.817 F9000
;TYPE:External perimeter
G1 F1200
G1 X190.54 Y180.183 E4.40109
G1 X191.217 Y180.276 E.02141
G1 X191.718 Y180.305 E.01574
G1 X199.69 Y180.31 E.24997
G1 X199.69 Y199.69 E.60765
G1 X180.31 Y199.69 E.60765
G1 X180.305 Y191.718 E.24997
G1 X180.276 Y191.217 E.01574
G1 X180.183 Y190.54 E.02141
G1 X39.817 Y190.54 E4.40109
G1 X39.724 Y191.217 E.02141
G1 X39.695 Y191.718 E.01574
G1 X39.69 Y199.69 E.24997
G1 X20.31 Y199.69 E.60765
G1 X20.31 Y180.31 E.60765
G1 X28.618 Y180.31 E.26049
G1 X29.59 Y180.276 E.03049
G1 X30.26 Y180.183 E.02122
G1 X30.26 Y39.817 E4.40106
G1 X29.59 Y39.724 E.02122
G1 X28.618 Y39.69 E.03049
G1 X20.31 Y39.69 E.26049
G1 X20.31 Y20.31 E.60765
G1 X39.69 Y20.31 E.60765
G1 X39.695 Y29.19 E.27842
G1 X39.724 Y29.687 E.01561
G1 X39.817 Y30.36 E.0213
G1 X180.183 Y30.36 E4.40108
G1 X180.276 Y29.685 E.02138
G1 X180.31 Y28.704 E.03078
G1 X180.31 Y20.31 E.26317
G1 X199.69 Y20.31 E.60765
G1 X199.69 Y39.69 E.60765
G1 X191.718 Y39.695 E.24997
G1 X191.217 Y39.724 E.01574
G1 X190.599 Y39.809 E.01953
G1 X190.14 Y39.831 F9000
G1 E-3.5 F3600
;WIPE_START
G1 F7200
G1 X190.598 Y42.809 E-1.425
;WIPE_END
G1 E-.075 F3600
G1 X199.2 Y21.566 F9000
G1 E5 F2400
;TYPE:Solid infill
;WIDTH:0.42189
G1 F1200
G1 X198.603 Y20.97 E.02659
G1 X198.067 Y20.97 E.01689
G1 X199.03 Y21.933 E.04291
G1 X199.03 Y22.469 E.01689
G1 X197.531 Y20.97 E.06679
G1 X196.995 Y20.97 E.01689
G1 X199.03 Y23.005 E.09068
G1 X199.03 Y23.541 E.01689
G1 X196.459 Y20.97 E.11456
G1 X195.924 Y20.97 E.01689
G1 X199.03 Y24.076 E.13844
G1 X199.03 Y24.612 E.01689
G1 X195.388 Y20.97 E.16233
G1 X194.852 Y20.97 E.01689
G1 X199.03 Y25.148 E.18621
G1 X199.03 Y25.684 E.01689
G1 X194.316 Y20.97 E.2101
G1 X193.78 Y20.97 E.01689
G1 X199.03 Y26.22 E.23398
G1 X199.03 Y26.756 E.01689
G1 X193.244 Y20.97 E.25786
G1 X192.708 Y20.97 E.01689
G1 X199.03 Y27.292 E.28175
G1 X199.03 Y27.828 E.01689
G1 X192.172 Y20.97 E.30563
G1 X191.636 Y20.97 E.01689
G1 X199.03 Y28.364 E.32951
G1 X199.03 Y28.9 E.01689
G1 X191.1 Y20.97 E.3534
G1 X190.564 Y20.97 E.01689
G1 X199.03 Y29.436 E.37728
G1 X199.03 Y29.972 E.01689
G1 X190.028 Y20.97 E.40117
G1 X189.492 Y20.97 E.01689
G1 X199.03 Y30.508 E.42505
G1 X199.03 Y31.044 E.01689
G1 X188.956 Y20.97 E.44893
G1 X188.42 Y20.97 E.01689
G1 X199.03 Y31.58 E.47282
G1 X199.03 Y32.116 E.01689
G1 X187.884 Y20.97 E.4967
G1 X187.348 Y20.97 E.01689
G1 X199.03 Y32.652 E.52058
G1 X199.03 Y33.188 E.01689
G1 X186.812 Y20.97 E.54447
G1 X186.277 Y20.97 E.01689
G1 X199.03 Y33.724 E.56835
G1 X199.03 Y34.259 E.01689
G1 X185.741 Y20.97 E.59224
G1 X185.205 Y20.97 E.01689
G1 X199.03 Y34.795 E.61612
G1 X199.03 Y35.331 E.01689
G1 X184.669 Y20.97 E.64
G1 X184.133 Y20.97 E.01689
G1 X199.03 Y35.867 E.66389
G1 X199.03 Y36.403 E.01689
G1 X183.597 Y20.97 E.68777
G1 X183.061 Y20.97 E.01689
G1 X199.03 Y36.939 E.71166
G1 X199.03 Y37.475 E.01689
G1 X182.525 Y20.97 E.73554
G1 X181.989 Y20.97 E.01689
G1 X199.03 Y38.011 E.75942
G1 X199.03 Y38.547 E.01689
G1 X181.453 Y20.97 E.78331
G1 X180.97 Y20.97 E.01523
G1 X180.97 Y21.023 E.00166
G1 X198.978 Y39.031 E.80251
G1 X198.442 Y39.031 E.01688
G1 X180.97 Y21.559 E.77865
G1 X180.97 Y22.094 E.01689
G1 X197.907 Y39.031 E.75478
G1 X197.371 Y39.032 E.01688
G1 X180.97 Y22.63 E.73091
G1 X180.97 Y23.166 E.01689
G1 X196.836 Y39.032 E.70704
G1 X196.3 Y39.033 E.01688
G1 X180.97 Y23.702 E.68318
G1 X180.97 Y24.238 E.01689
G1 X195.764 Y39.033 E.65931
G1 X195.229 Y39.033 E.01688
G1 X180.97 Y24.774 E.63544
G1 X180.97 Y25.31 E.01689
G1 X194.693 Y39.034 E.61158
G1 X194.158 Y39.034 E.01688
G1 X180.97 Y25.846 E.58771
G1 X180.97 Y26.382 E.01689
G1 X193.622 Y39.034 E.56384
G1 X193.086 Y39.035 E.01688
G1 X180.97 Y26.918 E.53997
G1 X180.97 Y27.454 E.01689
G1 X192.551 Y39.035 E.51611
G1 X192.015 Y39.035 E.01688
G1 X180.97 Y27.99 E.49224
G1 X180.97 Y28.526 E.01689
G1 X191.491 Y39.047 E.46889
G1 X190.996 Y39.088 E.01566
G1 X180.958 Y29.05 E.44734
G1 X180.941 Y29.568 E.01634
G1 X190.525 Y39.153 E.42712
G1 X190.449 Y39.163 E.0024
G1 X189.927 Y39.091 E.01661
G1 X180.891 Y30.055 E.40268
G1 X180.837 Y30.448 E.0125
G1 X180.851 Y30.551 E.00326
G1 X189.344 Y39.043 E.37847
G1 X188.799 Y39.035 E.01715
G1 X180.935 Y31.17 E.35048
G1 X180.953 Y31.725 E.01748
G1 X188.263 Y39.035 E.32576
G1 X187.727 Y39.034 E.0169
G1 X180.97 Y32.277 E.30113
G1 X180.97 Y32.813 E.01689
G1 X187.19 Y39.034 E.27722
G1 X186.654 Y39.034 E.0169
G1 X180.97 Y33.349 E.25332
G1 X180.97 Y33.885 E.01689
G1 X186.118 Y39.033 E.22942
G1 X185.581 Y39.033 E.0169
G1 X180.97 Y34.421 E.20551
G1 X180.97 Y34.957 E.01689
G1 X185.045 Y39.032 E.18161
G1 X184.508 Y39.032 E.0169
G1 X180.97 Y35.493 E.15771
G1 X180.97 Y36.029 E.01689
G1 X183.972 Y39.031 E.1338
G1 X183.436 Y39.031 E.0169
G1 X180.97 Y36.565 E.1099
G1 X180.97 Y37.101 E.01689
G1 X182.899 Y39.031 E.086
G1 X182.363 Y39.03 E.01689
G1 X180.97 Y37.637 E.06211
G1 X180.958 Y38.162 E.01654
G1 X181.832 Y39.035 E.03891
G1 X181.3 Y39.039 E.01675
G1 X180.781 Y38.52 E.02315
G1 E-3.5 F3600
;WIPE_START
G1 F7200
G1 X181.3 Y39.039 E-.3489
G1 X181.832 Y39.035 E-.25255
G1 X180.958 Y38.162 E-.58659
G1 X180.969 Y37.663 E-.23696
;WIPE_END
G1 E-.075 F3600
G1 X118.517 Y100.781 F9000
G1 E5 F2400
;WIDTH:0.423293
G1 F1200
G1 X119.038 Y101.301 E.02329
G1 X119.032 Y101.833 E.01681
G1 X118.157 Y100.958 E.03911
G1 X117.631 Y100.97 E.01666
G1 X119.032 Y102.371 E.06268
G1 X119.032 Y102.909 E.01702
G1 X117.093 Y100.97 E.08675
G1 X116.555 Y100.97 E.01701
G1 X119.033 Y103.447 E.11083
G1 X119.033 Y103.986 E.01702
G1 X116.017 Y100.97 E.1349
G1 X115.479 Y100.97 E.01701
G1 X119.033 Y104.524 E.15897
G1 X119.033 Y105.062 E.01702
G1 X114.941 Y100.97 E.18305
G1 X114.403 Y100.97 E.01701
G1 X119.034 Y105.6 E.20712
G1 X119.034 Y106.138 E.01702
G1 X113.865 Y100.97 E.2312
G1 X113.327 Y100.97 E.01701
G1 X119.034 Y106.677 E.25527
G1 X119.035 Y107.215 E.01702
G1 X112.789 Y100.97 E.27934
G1 X112.251 Y100.97 E.01701
G1 X119.035 Y107.753 E.30342
G1 X119.035 Y108.291 E.01702
G1 X111.713 Y100.97 E.32749
G1 X111.175 Y100.97 E.01701
G1 X119.035 Y108.829 E.35156
G1 X119.036 Y109.368 E.01702
G1 X110.638 Y100.97 E.37564
G1 X110.1 Y100.97 E.01701
G1 X119.036 Y109.906 E.39971
G1 X119.036 Y110.444 E.01702
G1 X109.562 Y100.97 E.42379
G1 X109.024 Y100.97 E.01701
G1 X119.036 Y110.982 E.44786
G1 X119.037 Y111.521 E.01702
G1 X108.486 Y100.97 E.47193
G1 X107.948 Y100.97 E.01701
G1 X119.037 Y112.059 E.49601
G1 X119.037 Y112.597 E.01702
G1 X107.41 Y100.97 E.52008
G1 X106.872 Y100.97 E.01701
G1 X119.038 Y113.135 E.54415
G1 X119.038 Y113.673 E.01702
G1 X106.334 Y100.97 E.56823
G1 X105.796 Y100.97 E.01701
G1 X119.038 Y114.212 E.5923
G1 X119.038 Y114.75 E.01702
G1 X105.258 Y100.97 E.61638
G1 X104.72 Y100.97 E.01701
G1 X119.039 Y115.288 E.64045
G1 X119.039 Y115.826 E.01702
G1 X104.182 Y100.97 E.66452
G1 X103.644 Y100.97 E.01701
G1 X119.039 Y116.364 E.6886
G1 X119.04 Y116.903 E.01702
G1 X103.107 Y100.97 E.71267
G1 X102.569 Y100.97 E.01701
G1 X119.04 Y117.441 E.73674
G1 X119.04 Y117.979 E.01702
G1 X102.025 Y100.964 E.76107
G1 X101.469 Y100.946 E.0176
G1 X119.04 Y118.517 E.78596
G1 X119.047 Y119.062 E.01723
G1 X100.951 Y100.966 E.80944
G1 X100.959 Y101.512 E.01728
G1 X118.503 Y119.055 E.7847
G1 X117.947 Y119.037 E.0176
G1 X100.96 Y102.05 E.75981
G1 X100.96 Y102.588 E.01702
G1 X117.402 Y119.03 E.73544
G1 X116.864 Y119.03 E.01701
G1 X100.96 Y103.127 E.71136
G1 X100.96 Y103.665 E.01702
G1 X116.326 Y119.03 E.68729
G1 X115.788 Y119.03 E.01701
G1 X100.961 Y104.203 E.66321
G1 X100.961 Y104.741 E.01702
G1 X115.25 Y119.03 E.63914
G1 X114.712 Y119.03 E.01701
G1 X100.961 Y105.28 E.61506
G1 X100.962 Y105.818 E.01702
G1 X114.174 Y119.03 E.59099
G1 X113.636 Y119.03 E.01701
G1 X100.962 Y106.356 E.56691
G1 X100.962 Y106.894 E.01702
G1 X113.098 Y119.03 E.54284
G1 X112.56 Y119.03 E.01701
G1 X100.962 Y107.432 E.51877
G1 X100.963 Y107.971 E.01702
G1 X112.023 Y119.03 E.49469
G1 X111.485 Y119.03 E.01701
G1 X100.963 Y108.509 E.47062
G1 X100.963 Y109.047 E.01702
G1 X110.947 Y119.03 E.44654
G1 X110.409 Y119.03 E.01701
G1 X100.964 Y109.585 E.42247
G1 X100.964 Y110.123 E.01702
G1 X109.871 Y119.03 E.39839
G1 X109.333 Y119.03 E.01701
G1 X100.964 Y110.662 E.37432
G1 X100.965 Y111.2 E.01702
G1 X108.795 Y119.03 E.35024
G1 X108.257 Y119.03 E.01701
G1 X100.965 Y111.738 E.32617
G1 X100.965 Y112.276 E.01702
G1 X107.719 Y119.03 E.3021
G1 X107.181 Y119.03 E.01701
G1 X100.965 Y112.815 E.27802
G1 X100.966 Y113.353 E.01702
G1 X106.643 Y119.03 E.25395
G1 X106.105 Y119.03 E.01701
G1 X100.966 Y113.891 E.22987
G1 X100.966 Y114.429 E.01702
G1 X105.567 Y119.03 E.2058
G1 X105.029 Y119.03 E.01701
