; generated by PrusaSlicer 2.4.2+x64 on 2022-07-09 at 02:39:34 UTC

; 

; external perimeters extrusion width = 0.45mm
; perimeters extrusion width = 0.45mm
; infill extrusion width = 0.45mm
; solid infill extrusion width = 0.45mm
; top infill extrusion width = 0.40mm
; first layer extrusion width = 0.42mm

M107
;TYPE:Custom
G90 ; use absolute coordinates
M83 ; extruder relative mode
M140 S60 ; set final bed temp
M104 S150 ; set temporary nozzle temp to prevent oozing during homing
G4 S10 ; allow partial nozzle warmup
G28 ; home all axis
G1 Z50 F240
G1 X2 Y10 F3000
M104 S225 ; set final nozzle temp
M190 S60 ; wait for bed temp to stabilize
M109 S225 ; wait for nozzle temp to stabilize
G1 Z0.28 F240
G92 E0
G1 Y140 E10 F1500 ; prime the nozzle
G1 X2.3 F5000
G92 E0
G1 Y10 E10 F1200 ; prime the nozzle
G92 E0
G21 ; set units to millimeters
G90 ; use absolute coordinates
M83 ; use relative distances for extrusion
; Filament gcode
M107
;LAYER_CHANGE
;Z:0.2
;HEIGHT:0.2
;BEFORE_LAYER_CHANGE
G92 E0
;0.2


G1 E-5 F3600
G1 Z.2 F9000
;AFTER_LAYER_CHANGE
;0.2
G1 X33.107 Y32.203
G1 E5 F2400
M204 S500
;TYPE:Skirt/Brim
;WIDTH:0.42
G1 F1200
G1 X35 Y31.623 E.06207
G1 X185 Y31.623 E4.70314
G1 X186.583 Y32.017 E.05115
G1 X187.797 Y33.107 E.05115
G1 X188.377 Y35 E.06207
G1 X188.377 Y185 E4.70314
G1 X187.983 Y186.583 E.05115
G1 X186.893 Y187.797 E.05115
G1 X185 Y188.377 E.06207
G1 X35 Y188.377 E4.70314
G1 X33.417 Y187.983 E.05115
G1 X32.203 Y186.893 E.05115
G1 X31.623 Y185 E.06207
G1 X31.623 Y35 E4.70314
G1 X32.017 Y33.417 E.05115
G1 X33.067 Y32.248 E.04927
G1 E-3.5 F3600
;WIPE_START
G1 F7200
G1 X35 Y31.623 E-.96489
G1 X35.969 Y31.623 E-.46011
;WIPE_END
G1 E-.075 F3600
G1 X35.29 Y35.29 F9000
G1 E5 F2400
;TYPE:External perimeter
G1 F1200
G1 X184.71 Y35.29 E4.68496
G1 X184.71 Y184.71 E4.68496
G1 X35.29 Y184.71 E4.68496
G1 X35.29 Y35.35 E4.68308
G1 X35.186 Y34.904 F9000
G1 X35.21 Y35.29
G1 F1200
G1 X35.21 Y35.21 E.00251
G1 X184.79 Y35.21 E4.68998
G1 X184.79 Y184.79 E4.68998
G1 X35.21 Y184.79 E4.68998
G1 X35.21 Y35.35 E4.68559
G1 X35.267 Y35.233 F9000
G1 E-3.5 F3600
;WIPE_START
G1 F7200
G1 X35.21 Y35.21 E-.0665
G1 X38.07 Y35.21 E-1.3585
;WIPE_END
G1 E-.075 F3600
G1 X45.29 Y45.29 F9000
G1 E5 F2400
G1 F1200
G1 X174.71 Y45.29 E4.05787
G1 X174.71 Y174.71 E4.05787
G1 X45.29 Y174.71 E4.05787
G1 X45.29 Y45.35 E4.05599
G1 X45.186 Y44.904 F9000
G1 X45.21 Y45.29
G1 F1200
G1 X45.21 Y45.21 E.00251
G1 X174.79 Y45.21 E4.06289
G1 X174.79 Y174.79 E4.06289
G1 X45.21 Y174.79 E4.06289
G1 X45.21 Y45.35 E4.0585
G1 X45.267 Y45.233 F9000
G1 E-3.5 F3600
;WIPE_START
G1 F7200
G1 X45.21 Y45.21 E-.0665
G1 X48.07 Y45.21 E-1.3585
;WIPE_END
G1 E-.075 F3600
G1 X55.29 Y55.29 F9000
G1 E5 F2400
G1 F1200
G1 X164.71 Y55.29 E3.43079
G1 X164.71 Y164.71 E3.43079
G1 X55.29 Y164.71 E3.43079
G1 X55.29 Y55.35 E3.42891
G1 X55.186 Y54.904 F9000
G1 X55.21 Y55.29
G1 F1200
G1 X55.21 Y55.21 E.00251
G1 X164.79 Y55.21 E3.4358
G1 X164.79 Y164.79 E3.4358
G1 X55.21 Y164.79 E3.4358
G1 X55.21 Y55.35 E3.43141
G1 X55.267 Y55.233 F9000
G1 E-3.5 F3600
;WIPE_START
G1 F7200
G1 X55.21 Y55.21 E-.0665
G1 X58.07 Y55.21 E-1.3585
;WIPE_END
G1 E-.075 F3600
G1 X65.29 Y65.29 F9000
G1 E5 F2400
G1 F1200
G1 X154.71 Y65.29 E2.8037
G1 X154.71 Y154.71 E2.8037
G1 X65.29 Y154.71 E2.8037
G1 X65.29 Y65.35 E2.80182
G1 X65.186 Y64.904 F9000
G1 X65.21 Y65.29
G1 F1200
G1 X65.21 Y65.21 E.00251
G1 X154.79 Y65.21 E2.80872
G1 X154.79 Y154.79 E2.80872
G1 X65.21 Y154.79 E2.80872
G1 X65.21 Y65.35 E2.80433
G1 X65.267 Y65.233 F9000
G1 E-3.5 F3600
;WIPE_START
G1 F7200
G1 X65.21 Y65.21 E-.0665
G1 X68.07 Y65.21 E-1.3585
;WIPE_END
G1 E-.075 F3600
G1 X75.29 Y75.29 F9000
G1 E5 F2400
G1 F1200
G1 X144.71 Y75.29 E2.17662
G1 X144.71 Y144.71 E2.17662
G1 X75.29 Y144.71 E2.17662
G1 X75.29 Y75.35 E2.17473
G1 X75.186 Y74.904 F9000
G1 X75.21 Y75.29
G1 F1200
G1 X75.21 Y75.21 E.00251
G1 X144.79 Y75.21 E2.18163
G1 X144.79 Y144.79 E2.18163
G1 X75.21 Y144.79 E2.18163
G1 X75.21 Y75.35 E2.17724
G1 X75.267 Y75.233 F9000
G1 E-3.5 F3600
;WIPE_START
G1 F7200
G1 X75.21 Y75.21 E-.0665
G1 X78.07 Y75.21 E-1.3585
;WIPE_END
G1 E-.075 F3600
G1 X85.29 Y85.29 F9000
G1 E5 F2400
G1 F1200
G1 X134.71 Y85.29 E1.54953
G1 X134.71 Y134.71 E1.54953
G1 X85.29 Y134.71 E1.54953
G1 X85.29 Y85.35 E1.54765
G1 X85.186 Y84.904 F9000
G1 X85.29 Y85.21
G1 F1200
G1 X134.79 Y85.21 E1.55204
G1 X134.79 Y134.79 E1.55455
G1 X85.21 Y134.79 E1.55455
G1 X85.21 Y85.21 E1.55455
G1 X85.23 Y85.21 E.00063
G1 X85.636 Y85.41 F9000
G1 E-3.5 F3600
;WIPE_START
G1 F7200
G1 X88.23 Y85.21 E-1.425
;WIPE_END
G1 E-.075 F3600
G1 X95.29 Y95.29 F9000
G1 E5 F2400
G1 F1200
G1 X124.71 Y95.29 E.92244
G1 X124.71 Y124.71 E.92244
G1 X95.29 Y124.71 E.92244
G1 X95.29 Y95.35 E.92056
G1 X95.186 Y94.904 F9000
G1 X95.21 Y95.29
G1 F1200
G1 X95.21 Y95.21 E.00251
G1 X124.79 Y95.21 E.92746
G1 X124.79 Y124.79 E.92746
G1 X95.21 Y124.79 E.92746
G1 X95.21 Y95.35 E.92307
G1 X95.267 Y95.233 F9000
M106 S255
;LAYER_CHANGE
;Z:0.36
;HEIGHT:0.16
;BEFORE_LAYER_CHANGE
G92 E0
;0.36


G1 E-3.5 F3600
;WIPE_START
G1 F7200
G1 X95.21 Y95.21 E-.0665
G1 X98.07 Y95.21 E-1.3585
;WIPE_END
G1 E-.075 F3600
G1 Z.36 F9000
;AFTER_LAYER_CHANGE
;0.36
M104 S220 ; set temperature
G1 X98.07 Y31.623
G1 E5 F2400
;TYPE:Skirt/Brim
G1 X185 Y31.623 E2.23014
G1 X186.583 Y32.017 E.04185
G1 X187.797 Y33.107 E.04185
G1 X188.377 Y35 E.05079
G1 X188.377 Y185 E3.84817
G1 X187.983 Y186.583 E.04185
G1 X186.893 Y187.797 E.04185
G1 X185 Y188.377 E.05079
G1 X35 Y188.377 E3.84817
G1 X33.417 Y187.983 E.04185
G1 X32.203 Y186.893 E.04185
G1 X31.623 Y185 E.05079
G1 X31.623 Y35 E3.84817
G1 X32.017 Y33.417 E.04185
G1 X33.107 Y32.203 E.04185
G1 X35 Y31.623 E.05079
G1 X98.01 Y31.623 E1.61649
G1 E-3.5 F3600
;WIPE_START
G1 F7200
G1 X101.01 Y31.623 E-1.425
;WIPE_END
G1 E-.075 F3600
G1 X95.275 Y95.275 F9000
G1 E5 F2400
;TYPE:External perimeter
;WIDTH:0.45
G1 F1500
G1 X124.725 Y95.275 E.81429
G1 X124.725 Y124.725 E.81429
G1 X95.275 Y124.725 E.81429
G1 X95.275 Y95.335 E.81264
G1 X95.171 Y94.889 F9000
G1 X95.225 Y95.335
G1 F1500
G1 X95.225 Y95.225 E.00304
G1 X124.775 Y95.225 E.81706
G1 X124.775 Y124.775 E.81706
G1 X95.225 Y124.775 E.81706
G1 X95.225 Y95.395 E.81236
G1 X95.303 Y95.257 F9000
G1 E-3.5 F3600
;WIPE_START
G1 F7200
G1 X95.225 Y95.225 E-.08075
G1 X98.055 Y95.225 E-1.34425
;WIPE_END
G1 E-.075 F3600
G1 X85.275 Y85.275 F9000
G1 E5 F2400
G1 F1500
G1 X134.725 Y85.275 E1.3673
G1 X134.725 Y134.725 E1.3673
G1 X85.275 Y134.725 E1.3673
G1 X85.275 Y85.335 E1.36564
G1 X85.171 Y84.889 F9000
G1 X85.225 Y85.335
G1 F1500
G1 X85.225 Y85.225 E.00304
G1 X134.775 Y85.225 E1.37006
G1 X134.775 Y134.775 E1.37006
G1 X85.225 Y134.775 E1.37006
G1 X85.225 Y85.395 E1.36536
G1 X85.303 Y85.257 F9000
G1 E-3.5 F3600
;WIPE_START
G1 F7200
G1 X85.225 Y85.225 E-.08075
G1 X88.055 Y85.225 E-1.34425
;WIPE_END
G1 E-.075 F3600
G1 X75.275 Y75.275 F9000
G1 E5 F2400
G1 F1500
G1 X144.725 Y75.275 E1.9203
G1 X144.725 Y144.725 E1.9203
G1 X75.275 Y144.725 E1.9203
G1 X75.275 Y75.335 E1.91864
G1 X75.171 Y74.889 F9000
G1 X75.225 Y75.335
G1 F1500
G1 X75.225 Y75.225 E.00304
G1 X144.775 Y75.225 E1.92306
G1 X144.775 Y144.775 E1.92306
G1 X75.225 Y144.775 E1.92306
G1 X75.225 Y75.395 E1.91836
G1 X75.303 Y75.257 F9000
G1 E-3.5 F3600
;WIPE_START
G1 F7200
G1 X75.225 Y75.225 E-.08075
G1 X78.055 Y75.225 E-1.34425
;WIPE_END
G1 E-.075 F3600
G1 X65.275 Y65.275 F9000
G1 E5 F2400
G1 F1500
G1 X154.725 Y65.275 E2.4733
G1 X154.725 Y154.725 E2.4733
G1 X65.275 Y154.725 E2.4733
G1 X65.275 Y65.335 E2.47164
G1 X65.171 Y64.889 F9000
G1 X65.225 Y65.335
G1 F1500
G1 X65.225 Y65.225 E.00304
G1 X154.775 Y65.225 E2.47606
G1 X154.775 Y154.775 E2.47606
G1 X65.225 Y154.775 E2.47606
G1 X65.225 Y65.395 E2.47136
G1 X65.303 Y65.257 F9000
G1 E-3.5 F3600
;WIPE_START
G1 F7200
G1 X65.225 Y65.225 E-.08075
G1 X68.055 Y65.225 E-1.34425
;WIPE_END
G1 E-.075 F3600
G1 X55.275 Y55.275 F9000
G1 E5 F2400
G1 F1500
G1 X164.725 Y55.275 E3.0263
G1 X164.725 Y164.725 E3.0263
G1 X55.275 Y164.725 E3.0263
G1 X55.275 Y55.335 E3.02464
G1 X55.171 Y54.889 F9000
G1 X55.225 Y55.335
G1 F1500
G1 X55.225 Y55.225 E.00304
G1 X164.775 Y55.225 E3.02906
G1 X164.775 Y164.775 E3.02906
G1 X55.225 Y164.775 E3.02906
G1 X55.225 Y55.395 E3.02436
G1 X55.303 Y55.257 F9000
G1 E-3.5 F3600
;WIPE_START
G1 F7200
G1 X55.225 Y55.225 E-.08075
G1 X58.055 Y55.225 E-1.34425
;WIPE_END
G1 E-.075 F3600
G1 X45.275 Y45.275 F9000
G1 E5 F2400
G1 F1500
G1 X174.725 Y45.275 E3.5793
G1 X174.725 Y174.725 E3.5793
G1 X45.275 Y174.725 E3.5793
G1 X45.275 Y45.335 E3.57764
G1 X45.171 Y44.889 F9000
G1 X45.225 Y45.335
G1 F1500
G1 X45.225 Y45.225 E.00304
G1 X174.775 Y45.225 E3.58207
G1 X174.775 Y174.775 E3.58207
G1 X45.225 Y174.775 E3.58207
G1 X45.225 Y45.395 E3.57737
G1 X45.303 Y45.257 F9000
G1 E-3.5 F3600
;WIPE_START
G1 F7200
G1 X45.225 Y45.225 E-.08075
G1 X48.055 Y45.225 E-1.34425
;WIPE_END
G1 E-.075 F3600
G1 X35.275 Y35.275 F9000
G1 E5 F2400
G1 F1500
G1 X184.725 Y35.275 E4.1323
G1 X184.725 Y184.725 E4.1323
G1 X35.275 Y184.725 E4.1323
G1 X35.275 Y35.335 E4.13064
G1 X35.171 Y34.889 F9000
G1 X35.225 Y35.335
G1 F1500
G1 X35.225 Y35.225 E.00304
G1 X184.775 Y35.225 E4.13507
G1 X184.775 Y184.775 E4.13507
G1 X35.225 Y184.775 E4.13507
G1 X35.225 Y35.395 E4.13037
G1 X35.303 Y35.257 F9000
;LAYER_CHANGE
;Z:0.52
;HEIGHT:0.16
;BEFORE_LAYER_CHANGE
G92 E0
;0.52


G1 E-3.5 F3600
;WIPE_START
G1 F7200
G1 X35.225 Y35.225 E-.08075
G1 X38.055 Y35.225 E-1.34425
;WIPE_END
G1 E-.075 F3600
G1 Z.52 F9000
;AFTER_LAYER_CHANGE
;0.52
G1 X95.275 Y95.275
G1 E5 F2400
G1 F1500
G1 X124.725 Y95.275 E.81429
G1 X124.725 Y124.725 E.81429
G1 X95.275 Y124.725 E.81429
G1 X95.275 Y95.335 E.81264
G1 X95.171 Y94.889 F9000
G1 X95.225 Y95.275
G1 F1500
G1 X95.225 Y95.225 E.00138
G1 X124.775 Y95.225 E.81706
G1 X124.775 Y124.775 E.81706
G1 X95.225 Y124.775 E.81706
G1 X95.225 Y95.335 E.81402
G1 X95.26 Y95.24 F9000
G1 E-3.5 F3600
;WIPE_START
G1 F7200
G1 X95.225 Y95.225 E-.05225
G1 X98.115 Y95.225 E-1.37275
;WIPE_END
G1 E-.075 F3600
G1 X85.275 Y85.275 F9000
G1 E5 F2400
G1 F1500
G1 X134.725 Y85.275 E1.3673
G1 X134.725 Y134.725 E1.3673
G1 X85.275 Y134.725 E1.3673
G1 X85.275 Y85.335 E1.36564
G1 X85.171 Y84.889 F9000
G1 X85.225 Y85.335
G1 F1500
G1 X85.225 Y85.225 E.00304
G1 X134.775 Y85.225 E1.37006
G1 X134.775 Y134.775 E1.37006
G1 X85.225 Y134.775 E1.37006
G1 X85.225 Y85.395 E1.36536
G1 X85.303 Y85.257 F9000
G1 E-3.5 F3600
;WIPE_START
G1 F7200
G1 X85.225 Y85.225 E-.08075
G1 X88.055 Y85.225 E-1.34425
;WIPE_END
G1 E-.075 F3600
G1 X75.275 Y75.275 F9000
G1 E5 F2400
G1 F1500
G1 X144.725 Y75.275 E1.9203
G1 X144.725 Y144.725 E1.9203
G1 X75.275 Y144.725 E1.9203
G1 X75.275 Y75.335 E1.91864
G1 X75.171 Y74.889 F9000
G1 X75.225 Y75.335
G1 F1500
G1 X75.225 Y75.225 E.00304
G1 X144.775 Y75.225 E1.92306
G1 X144.775 Y144.775 E1.92306
G1 X75.225 Y144.775 E1.92306
G1 X75.225 Y75.395 E1.91836
G1 X75.303 Y75.257 F9000
G1 E-3.5 F3600
;WIPE_START
G1 F7200
G1 X75.225 Y75.225 E-.08075
G1 X78.055 Y75.225 E-1.34425
;WIPE_END
G1 E-.075 F3600
G1 X65.275 Y65.275 F9000
G1 E5 F2400
G1 F1500
G1 X154.725 Y65.275 E2.4733
G1 X154.725 Y154.725 E2.4733
G1 X65.275 Y154.725 E2.4733
G1 X65.275 Y65.335 E2.47164
G1 X65.171 Y64.889 F9000
G1 X65.225 Y65.335
G1 F1500
G1 X65.225 Y65.225 E.00304
G1 X154.775 Y65.225 E2.47606
G1 X154.775 Y154.775 E2.47606
G1 X65.225 Y154.775 E2.47606
G1 X65.225 Y65.395 E2.47136
G1 X65.303 Y65.257 F9000
G1 E-3.5 F3600
;WIPE_START
G1 F7200
G1 X65.225 Y65.225 E-.08075
G1 X68.055 Y65.225 E-1.34425
;WIPE_END
G1 E-.075 F3600
G1 X55.275 Y55.275 F9000
G1 E5 F2400
G1 F1500
G1 X164.725 Y55.275 E3.0263
G1 X164.725 Y164.725 E3.0263
G1 X55.275 Y164.725 E3.0263
G1 X55.275 Y55.335 E3.02464
G1 X55.171 Y54.889 F9000
G1 X55.225 Y55.335
G1 F1500
G1 X55.225 Y55.225 E.00304
G1 X164.775 Y55.225 E3.02906
G1 X164.775 Y164.775 E3.02906
G1 X55.225 Y164.775 E3.02906
G1 X55.225 Y55.395 E3.02436
G1 X55.303 Y55.257 F9000
G1 E-3.5 F3600
;WIPE_START
G1 F7200
G1 X55.225 Y55.225 E-.08075
G1 X58.055 Y55.225 E-1.34425
;WIPE_END
G1 E-.075 F3600
G1 X45.275 Y45.275 F9000
G1 E5 F2400
G1 F1500
G1 X174.725 Y45.275 E3.5793
G1 X174.725 Y174.725 E3.5793
G1 X45.275 Y174.725 E3.5793
G1 X45.275 Y45.335 E3.57764
G1 X45.171 Y44.889 F9000
G1 X45.225 Y45.335
G1 F1500
G1 X45.225 Y45.225 E.00304
G1 X174.775 Y45.225 E3.58207
G1 X174.775 Y174.775 E3.58207
G1 X45.225 Y174.775 E3.58207
G1 X45.225 Y45.395 E3.57737
G1 X45.303 Y45.257 F9000
G1 E-3.5 F3600
;WIPE_START
G1 F7200
G1 X45.225 Y45.225 E-.08075
G1 X48.055 Y45.225 E-1.34425
;WIPE_END
G1 E-.075 F3600
G1 X35.275 Y35.275 F9000
G1 E5 F2400
G1 F1500
G1 X184.725 Y35.275 E4.1323
G1 X184.725 Y184.725 E4.1323
G1 X35.275 Y184.725 E4.1323
G1 X35.275 Y35.335 E4.13064
G1 X35.171 Y34.889 F9000
G1 X35.225 Y35.335
G1 F1500
G1 X35.225 Y35.225 E.00304
G1 X184.775 Y35.225 E4.13507
G1 X184.775 Y184.775 E4.13507
G1 X35.225 Y184.775 E4.13507
G1 X35.225 Y35.395 E4.13037
G1 X35.303 Y35.257 F9000
;LAYER_CHANGE
;Z:0.68
;HEIGHT:0.16
;BEFORE_LAYER_CHANGE
G92 E0
;0.68


G1 E-3.5 F3600
;WIPE_START
G1 F7200
G1 X35.225 Y35.225 E-.08075
G1 X38.055 Y35.225 E-1.34425
;WIPE_END
G1 E-.075 F3600
G1 Z.68 F9000
;AFTER_LAYER_CHANGE
;0.68
G1 X95.275 Y95.275
G1 E5 F2400
G1 F1500
G1 X124.725 Y95.275 E.81429
G1 X124.725 Y124.725 E.81429
G1 X95.275 Y124.725 E.81429
G1 X95.275 Y95.335 E.81264
G1 X95.171 Y94.889 F9000
G1 X95.225 Y95.275
G1 F1500
G1 X95.225 Y95.225 E.00138
G1 X124.775 Y95.225 E.81706
G1 X124.775 Y124.775 E.81706
G1 X95.225 Y124.775 E.81706
G1 X95.225 Y95.335 E.81402
G1 X95.26 Y95.24 F9000
G1 E-3.5 F3600
;WIPE_START
G1 F7200
G1 X95.225 Y95.225 E-.05225
G1 X98.115 Y95.225 E-1.37275
;WIPE_END
G1 E-.075 F3600
G1 X85.275 Y85.275 F9000
G1 E5 F2400
G1 F1500
G1 X134.725 Y85.275 E1.3673
G1 X134.725 Y134.725 E1.3673
G1 X85.275 Y134.725 E1.3673
G1 X85.275 Y85.335 E1.36564
G1 X85.171 Y84.889 F9000
G1 X85.225 Y85.335
G1 F1500
G1 X85.225 Y85.225 E.00304
G1 X134.775 Y85.225 E1.37006
G1 X134.775 Y134.775 E1.37006
G1 X85.225 Y134.775 E1.37006
G1 X85.225 Y85.395 E1.36536
G1 X85.303 Y85.257 F9000
G1 E-3.5 F3600
;WIPE_START
G1 F7200
G1 X85.225 Y85.225 E-.08075
G1 X88.055 Y85.225 E-1.34425
;WIPE_END
G1 E-.075 F3600
G1 X75.275 Y75.275 F9000
G1 E5 F2400
G1 F1500
G1 X144.725 Y75.275 E1.9203
G1 X144.725 Y144.725 E1.9203
G1 X75.275 Y144.725 E1.9203
G1 X75.275 Y75.335 E1.91864
G1 X75.171 Y74.889 F9000
G1 X75.225 Y75.335
G1 F1500
G1 X75.225 Y75.225 E.00304
G1 X144.775 Y75.225 E1.92306
G1 X144.775 Y144.775 E1.92306
G1 X75.225 Y144.775 E1.92306
G1 X75.225 Y75.395 E1.91836
G1 X75.303 Y75.257 F9000
G1 E-3.5 F3600
;WIPE_START
G1 F7200
G1 X75.225 Y75.225 E-.08075
G1 X78.055 Y75.225 E-1.34425
;WIPE_END
G1 E-.075 F3600
G1 X65.275 Y65.275 F9000
G1 E5 F2400
G1 F1500
G1 X154.725 Y65.275 E2.4733
G1 X154.725 Y154.725 E2.4733
G1 X65.275 Y154.725 E2.4733
G1 X65.275 Y65.335 E2.47164
G1 X65.171 Y64.889 F9000
G1 X65.225 Y65.335
G1 F1500
G1 X65.225 Y65.225 E.00304
G1 X154.775 Y65.225 E2.47606
G1 X154.775 Y154.775 E2.47606
G1 X65.225 Y154.775 E2.47606
G1 X65.225 Y65.395 E2.47136
G1 X65.303 Y65.257 F9000
G1 E-3.5 F3600
;WIPE_START
G1 F7200
G1 X65.225 Y65.225 E-.08075
G1 X68.055 Y65.225 E-1.34425
;WIPE_END
G1 E-.075 F3600
G1 X55.275 Y55.275 F9000
G1 E5 F2400
G1 F1500
G1 X164.725 Y55.275 E3.0263
G1 X164.725 Y164.725 E3.0263
G1 X55.275 Y164.725 E3.0263
G1 X55.275 Y55.335 E3.02464
G1 X55.171 Y54.889 F9000
G1 X55.225 Y55.335
G1 F1500
G1 X55.225 Y55.225 E.00304
G1 X164.775 Y55.225 E3.02906
G1 X164.775 Y164.775 E3.02906
G1 X55.225 Y164.775 E3.02906
G1 X55.225 Y55.395 E3.02436
G1 X55.303 Y55.257 F9000
G1 E-3.5 F3600
;WIPE_START
G1 F7200
G1 X55.225 Y55.225 E-.08075
G1 X58.055 Y55.225 E-1.34425
;WIPE_END
G1 E-.075 F3600
G1 X45.275 Y45.275 F9000
G1 E5 F2400
G1 F1500
G1 X174.725 Y45.275 E3.5793
G1 X174.725 Y174.725 E3.5793
G1 X45.275 Y174.725 E3.5793
G1 X45.275 Y45.335 E3.57764
G1 X45.171 Y44.889 F9000
G1 X45.225 Y45.335
G1 F1500
G1 X45.225 Y45.225 E.00304
G1 X174.775 Y45.225 E3.58207
G1 X174.775 Y174.775 E3.58207
G1 X45.225 Y174.775 E3.58207
G1 X45.225 Y45.395 E3.57737
G1 X45.303 Y45.257 F9000
G1 E-3.5 F3600
;WIPE_START
G1 F7200
G1 X45.225 Y45.225 E-.08075
G1 X48.055 Y45.225 E-1.34425
;WIPE_END
G1 E-.075 F3600
G1 X35.275 Y35.275 F9000
G1 E5 F2400
G1 F1500
G1 X184.725 Y35.275 E4.1323
