; generated by PrusaSlicer 2.4.2+x64 on 2022-07-09 at 03:32:18 UTC

; 

; external perimeters extrusion width = 0.45mm
; perimeters extrusion width = 0.45mm
; infill extrusion width = 0.45mm
; solid infill extrusion width = 0.45mm
; top infill extrusion width = 0.40mm
; first layer extrusion width = 0.42mm

M107
;TYPE:Custom
G90 ; use absolute coordinates
M83 ; extruder relative mode
M140 S60 ; set final bed temp
M104 S150 ; set temporary nozzle temp to prevent oozing during homing
G4 S10 ; allow partial nozzle warmup
G28 ; home all axis
G1 Z50 F240
G1 X2 Y10 F3000
M104 S225 ; set final nozzle temp
M190 S60 ; wait for bed temp to stabilize
M109 S225 ; wait for nozzle temp to stabilize
G1 Z0.28 F240
G92 E0
G1 Y140 E10 F1500 ; prime the nozzle
G1 X2.3 F5000
G92 E0
G1 Y10 E10 F1200 ; prime the nozzle
G92 E0
G21 ; set units to millimeters
G90 ; use absolute coordinates
M83 ; use relative distances for extrusion
; Filament gcode
M107
;LAYER_CHANGE
;Z:0.2
;HEIGHT:0.2
;BEFORE_LAYER_CHANGE
G92 E0
;0.2


G1 E-5 F3600
G1 Z.2 F9000
;AFTER_LAYER_CHANGE
;0.2
G1 X64.53 Y62.898
G1 E5 F2400
M204 S500
;TYPE:Skirt/Brim
;WIDTH:0.42
G1 F1200
G1 X65.394 Y62.012 E.03881
G1 X66.949 Y60.874 E.06043
G1 X68.708 Y60.095 E.06032
G1 X69.99 Y59.764 E.04152
G1 X71.322 Y59.633 E.04195
G1 X127.551 Y59.632 E1.76301
G1 X129.129 Y59.814 E.04981
G1 X151.472 Y65.404 E.72216
G1 X152.447 Y65.725 E.03216
G1 X153.92 Y66.485 E.05198
G1 X154.79 Y67.134 E.03403
G1 X155.359 Y67.666 E.02442
G1 X156.054 Y68.478 E.03351
G1 X156.548 Y69.213 E.02777
G1 X157.05 Y70.193 E.03452
G1 X157.325 Y70.923 E.02444
G1 X157.643 Y72.28 E.04373
G1 X157.735 Y73.494 E.03816
G1 X157.736 Y149.398 E2.37992
G1 X157.648 Y150.601 E.03781
G1 X157.427 Y151.646 E.0335
G1 X157.054 Y152.705 E.03521
G1 X156.556 Y153.682 E.03436
G1 X155.583 Y155.003 E.05147
G1 X154.37 Y156.11 E.05148
G1 X152.964 Y156.958 E.05147
G1 X152.155 Y157.294 E.02747
G1 X151.117 Y157.587 E.03383
G1 X127.554 Y160.368 E.74393
G1 X71.628 Y160.381 E1.7535
G1 X70.297 Y160.277 E.04187
G1 X68.712 Y159.906 E.05104
G1 X68.159 Y159.704 E.01846
G1 X66.705 Y158.97 E.05107
G1 X65.401 Y157.995 E.05106
G1 X64.662 Y157.257 E.03273
G1 X64.284 Y156.806 E.01847
G1 X63.39 Y155.441 E.05116
G1 X62.745 Y153.937 E.05132
G1 X62.473 Y152.923 E.0329
G1 X62.266 Y150.999 E.06068
G1 X62.266 Y69.001 E2.57098
G1 X62.449 Y67.174 E.05758
G1 X62.744 Y66.065 E.03598
G1 X62.956 Y65.489 E.01924
G1 X63.68 Y64.057 E.05031
G1 X64.488 Y62.941 E.04319
G1 E-3.5 F3600
;WIPE_START
G1 F7200
G1 X65.394 Y62.012 E-.61648
G1 X66.768 Y61.007 E-.80852
;WIPE_END
G1 E-.075 F3600
G1 X112.749 Y116.772 F9000
G1 E5 F2400
;TYPE:Perimeter
G1 F1200
G1 X113.266 Y116.465 E.01885
G1 X113.788 Y116.295 E.01721
G1 X114.113 Y116.246 E.0103
G1 X114.642 Y116.247 E.01659
G1 X115.192 Y116.364 E.01762
G1 X115.705 Y116.592 E.01764
G1 X116.16 Y116.923 E.01764
G1 X116.537 Y117.341 E.01763
G1 X116.818 Y117.828 E.01764
G1 X116.987 Y118.348 E.01715
G1 X117.036 Y118.657 E.00979
G1 X117.036 Y119.204 E.01715
G1 X116.919 Y119.754 E.01764
G1 X116.69 Y120.268 E.01764
G1 X116.36 Y120.723 E.01763
G1 X115.953 Y121.089 E.01715
G1 X115.691 Y121.259 E.00979
G1 X115.192 Y121.481 E.01715
G1 X114.657 Y121.595 E.01715
G1 X114.345 Y121.611 E.00979
G1 X113.801 Y121.554 E.01715
G1 X113.266 Y121.38 E.01764
G1 X112.779 Y121.099 E.01763
G1 X112.361 Y120.723 E.01764
G1 X112.03 Y120.268 E.01763
G1 X111.801 Y119.754 E.01764
G1 X111.685 Y119.204 E.01764
G1 X111.685 Y118.641 E.01764
G1 X111.801 Y118.091 E.01764
G1 X112.03 Y117.577 E.01763
G1 X112.361 Y117.122 E.01764
G1 X112.705 Y116.812 E.01451
G1 X113.002 Y117.053 F9000
;TYPE:External perimeter
G1 F1200
G1 X113.42 Y116.811 E.01515
G1 X113.875 Y116.663 E.015
G1 X114.141 Y116.623 E.00843
G1 X114.602 Y116.624 E.01446
G1 X115.074 Y116.724 E.01514
G1 X115.516 Y116.921 E.01515
G1 X115.907 Y117.205 E.01515
G1 X116.23 Y117.564 E.01515
G1 X116.472 Y117.982 E.01515
G1 X116.619 Y118.437 E.01498
G1 X116.659 Y118.686 E.00793
G1 X116.659 Y119.164 E.01498
G1 X116.558 Y119.637 E.01515
G1 X116.362 Y120.078 E.01515
G1 X116.078 Y120.469 E.01515
G1 X115.723 Y120.789 E.01498
G1 X115.511 Y120.926 E.00793
G1 X115.074 Y121.121 E.01498
G1 X114.607 Y121.22 E.01498
G1 X114.355 Y121.233 E.00793
G1 X113.88 Y121.183 E.01498
G1 X113.42 Y121.034 E.01515
G1 X113.002 Y120.792 E.01515
G1 X112.643 Y120.469 E.01515
G1 X112.359 Y120.078 E.01515
G1 X112.162 Y119.637 E.01515
G1 X112.062 Y119.164 E.01515
G1 X112.062 Y118.681 E.01515
G1 X112.162 Y118.208 E.01515
G1 X112.359 Y117.767 E.01515
G1 X112.643 Y117.376 E.01515
G1 X112.957 Y117.093 E.01327
G1 X112.96 Y116.655 F9000
G1 E-3.5 F3600
;WIPE_START
G1 F7200
G1 X113.42 Y116.811 E-.25745
G1 X113.875 Y116.663 E-.22722
G1 X114.141 Y116.623 E-.12765
G1 X114.602 Y116.624 E-.21908
G1 X115.074 Y116.724 E-.22942
G1 X115.516 Y116.921 E-.22953
G1 X115.745 Y117.087 E-.13465
;WIPE_END
G1 E-.075 F3600
G1 X114.119 Y89.248 F9000
G1 E5 F2400
;TYPE:Perimeter
G1 F1200
G1 X113.529 Y89.131 E.01885
G1 X113.015 Y88.902 E.01764
G1 X112.56 Y88.572 E.01763
G1 X112.184 Y88.154 E.01764
G1 X111.902 Y87.667 E.01764
G1 X111.733 Y87.146 E.01715
G1 X111.685 Y86.838 E.00979
G1 X111.685 Y86.291 E.01715
G1 X111.801 Y85.741 E.01763
G1 X112.03 Y85.227 E.01763
G1 X112.361 Y84.772 E.01764
G1 X112.779 Y84.396 E.01763
G1 X113.266 Y84.114 E.01764
G1 X113.788 Y83.945 E.01721
G1 X114.113 Y83.896 E.0103
G1 X114.642 Y83.897 E.0166
G1 X115.192 Y84.013 E.01762
G1 X115.705 Y84.242 E.01763
G1 X116.16 Y84.573 E.01764
G1 X116.537 Y84.991 E.01763
G1 X116.818 Y85.478 E.01764
G1 X116.987 Y85.998 E.01715
G1 X117.034 Y86.293 E.00937
G1 X117.048 Y86.606 E.00981
G1 X116.992 Y87.132 E.01659
G1 X116.818 Y87.667 E.01762
G1 X116.537 Y88.154 E.01764
G1 X116.16 Y88.572 E.01764
G1 X115.705 Y88.902 E.01763
G1 X115.192 Y89.131 E.01764
G1 X114.641 Y89.248 E.01764
G1 X114.179 Y89.248 E.01451
G1 X114.119 Y88.871 F9000
;TYPE:External perimeter
G1 F1200
G1 X113.646 Y88.77 E.01515
G1 X113.205 Y88.574 E.01515
G1 X112.814 Y88.29 E.01515
G1 X112.49 Y87.931 E.01515
G1 X112.249 Y87.512 E.01515
G1 X112.101 Y87.058 E.01498
G1 X112.062 Y86.808 E.00793
G1 X112.062 Y86.331 E.01498
G1 X112.162 Y85.858 E.01515
G1 X112.359 Y85.417 E.01515
G1 X112.643 Y85.026 E.01515
G1 X113.002 Y84.702 E.01515
G1 X113.42 Y84.461 E.01515
G1 X113.875 Y84.313 E.015
G1 X114.141 Y84.273 E.00843
G1 X114.602 Y84.274 E.01446
G1 X115.074 Y84.374 E.01514
G1 X115.516 Y84.571 E.01515
G1 X115.907 Y84.855 E.01515
G1 X116.23 Y85.214 E.01515
G1 X116.472 Y85.632 E.01515
G1 X116.619 Y86.086 E.01498
G1 X116.658 Y86.331 E.00778
G1 X116.67 Y86.594 E.00825
G1 X116.621 Y87.053 E.01446
G1 X116.472 Y87.512 E.01514
G1 X116.23 Y87.931 E.01515
G1 X115.907 Y88.29 E.01515
G1 X115.516 Y88.574 E.01515
G1 X115.074 Y88.77 E.01515
G1 X114.602 Y88.871 E.01515
G1 X114.179 Y88.871 E.01327
G1 X113.884 Y89.194 F9000
G1 E-3.5 F3600
;WIPE_START
G1 F7200
G1 X113.646 Y88.77 E-.25746
G1 X113.205 Y88.574 E-.22952
G1 X112.814 Y88.29 E-.22949
G1 X112.49 Y87.931 E-.22951
G1 X112.249 Y87.512 E-.22953
G1 X112.101 Y87.058 E-.22689
G1 X112.094 Y87.011 E-.02259
;WIPE_END
G1 E-.075 F3600
G1 X141.503 Y83.708 F9000
G1 E5 F2400
;TYPE:Perimeter
G1 F1200
G1 X141.457 Y83.248 E.01449
G1 X141.507 Y82.708 E.01701
G1 X141.676 Y82.167 E.01777
G1 X141.924 Y81.715 E.01618
G1 X142.288 Y81.285 E.01766
G1 X142.725 Y80.948 E.0173
G1 X143.016 Y80.791 E.01038
G1 X143.52 Y80.615 E.01674
G1 X144.081 Y80.541 E.01772
G1 X144.63 Y80.586 E.01729
G1 X144.953 Y80.666 E.01041
G1 X145.459 Y80.883 E.01727
G1 X145.921 Y81.209 E.01772
G1 X146.304 Y81.624 E.01772
G1 X146.592 Y82.11 E.01773
G1 X146.772 Y82.646 E.01772
G1 X146.837 Y83.208 E.01775
G1 X146.782 Y83.772 E.01776
G1 X146.61 Y84.311 E.01774
G1 X146.337 Y84.791 E.01732
G1 X146.128 Y85.047 E.01037
G1 X145.732 Y85.404 E.01672
G1 X145.243 Y85.688 E.01773
G1 X144.704 Y85.863 E.01775
G1 X144.141 Y85.921 E.01775
G1 X143.579 Y85.861 E.01774
G1 X143.048 Y85.686 E.01751
G1 X142.655 Y85.469 E.01407
G1 X142.278 Y85.165 E.0152
G1 X142.053 Y84.918 E.01048
G1 X141.88 Y84.678 E.00926
G1 X141.651 Y84.235 E.01564
G1 X141.513 Y83.767 E.01529
G1 X141.878 Y83.671 F9000
;TYPE:External perimeter
G1 F1200
G1 X141.836 Y83.247 E.01335
G1 X141.879 Y82.783 E.01463
G1 X142.024 Y82.316 E.01534
G1 X142.236 Y81.93 E.0138
G1 X142.55 Y81.56 E.01522
G1 X142.931 Y81.266 E.01509
G1 X143.169 Y81.137 E.00848
G1 X143.608 Y80.983 E.01457
G1 X144.09 Y80.92 E.01524
G1 X144.569 Y80.959 E.01509
G1 X144.832 Y81.025 E.00849
G1 X145.274 Y81.214 E.01506
G1 X145.671 Y81.494 E.01522
G1 X146 Y81.85 E.01522
G1 X146.248 Y82.268 E.01523
G1 X146.402 Y82.728 E.01522
G1 X146.458 Y83.211 E.01525
G1 X146.41 Y83.696 E.01526
G1 X146.263 Y84.159 E.01524
G1 X146.025 Y84.577 E.01509
G1 X145.854 Y84.787 E.00848
G1 X145.509 Y85.098 E.01457
G1 X145.088 Y85.341 E.01524
G1 X144.626 Y85.492 E.01525
G1 X144.142 Y85.542 E.01525
G1 X143.659 Y85.49 E.01524
G1 X143.2 Y85.339 E.01516
G1 X142.866 Y85.155 E.01193
G1 X142.538 Y84.889 E.01325
G1 X142.347 Y84.68 E.0089
G1 X142.202 Y84.48 E.00772
G1 X142.002 Y84.094 E.01364
G1 X141.895 Y83.729 E.01193
G1 X141.499 Y83.541 F9000
G1 E-3.5 F3600
;WIPE_START
G1 F7200
G1 X141.836 Y83.247 E-.23032
G1 X141.879 Y82.783 E-.22169
G1 X142.024 Y82.316 E-.2324
G1 X142.236 Y81.93 E-.20909
G1 X142.55 Y81.56 E-.23052
G1 X142.931 Y81.266 E-.22859
G1 X143.065 Y81.193 E-.0724
;WIPE_END
G1 E-.075 F3600
G1 X144.141 Y128.719 F9000
G1 E5 F2400
;TYPE:Perimeter
G1 F1200
G1 X144.616 Y128.756 E.01493
G1 X145.141 Y128.906 E.01712
G1 X145.572 Y129.124 E.01516
G1 X146.018 Y129.473 E.01776
G1 X146.367 Y129.886 E.01694
G1 X146.632 Y130.375 E.01745
G1 X146.791 Y130.91 E.01747
G1 X146.836 Y131.465 E.01748
G1 X146.766 Y132.018 E.01748
G1 X146.583 Y132.545 E.01748
G1 X146.303 Y133.011 E.01705
G1 X146.093 Y133.259 E.01021
G1 X145.697 Y133.604 E.01645
G1 X145.211 Y133.876 E.01745
G1 X144.679 Y134.042 E.01747
G1 X144.128 Y134.095 E.01735
G1 X143.609 Y134.041 E.01637
G1 X143.102 Y133.884 E.01662
G1 X142.633 Y133.629 E.01676
G1 X142.234 Y133.295 E.01631
G1 X141.942 Y132.946 E.01426
G1 X141.677 Y132.473 E.01701
G1 X141.512 Y131.951 E.01716
G1 X141.456 Y131.407 E.01716
G1 X141.511 Y130.863 E.01716
G1 X141.676 Y130.34 E.01718
G1 X141.942 Y129.862 E.01715
G1 X142.288 Y129.46 E.01664
G1 X142.733 Y129.116 E.01765
G1 X143.211 Y128.883 E.01666
G1 X143.73 Y128.748 E.0168
G1 X144.081 Y128.719 E.01106
G1 X144.111 Y129.094 F9000
;TYPE:External perimeter
G1 F1200
G1 X144.549 Y129.129 E.01375
G1 X145.003 Y129.259 E.01481
G1 X145.369 Y129.444 E.01287
G1 X145.755 Y129.746 E.01538
G1 X146.054 Y130.1 E.01451
G1 X146.282 Y130.521 E.015
G1 X146.418 Y130.979 E.01501
G1 X146.457 Y131.457 E.01501
G1 X146.397 Y131.932 E.01501
G1 X146.24 Y132.384 E.01501
G1 X145.996 Y132.79 E.01486
G1 X145.823 Y132.994 E.00835
G1 X145.478 Y133.294 E.01433
G1 X145.061 Y133.528 E.01501
G1 X144.604 Y133.67 E.01501
G1 X144.13 Y133.716 E.01493
G1 X143.685 Y133.669 E.01402
G1 X143.25 Y133.535 E.01429
G1 X142.846 Y133.315 E.01441
G1 X142.501 Y133.028 E.01407
G1 X142.254 Y132.732 E.01209
G1 X142.025 Y132.323 E.0147
G1 X141.883 Y131.874 E.01474
G1 X141.835 Y131.407 E.01474
G1 X141.883 Y130.939 E.01474
G1 X142.024 Y130.49 E.01476
G1 X142.253 Y130.079 E.01474
G1 X142.549 Y129.735 E.01425
G1 X142.934 Y129.438 E.01523
G1 X143.342 Y129.239 E.01425
G1 X143.794 Y129.122 E.01462
G1 X144.052 Y129.1 E.00812
G1 X144.308 Y128.746 F9000
G1 E-3.5 F3600
;WIPE_START
G1 F7200
G1 X144.549 Y129.129 E-.23648
G1 X145.003 Y129.259 E-.22434
G1 X145.369 Y129.444 E-.19495
G1 X145.755 Y129.746 E-.23298
G1 X146.054 Y130.1 E-.21982
G1 X146.282 Y130.521 E-.22728
G1 X146.335 Y130.7 E-.08915
;WIPE_END
G1 E-.075 F3600
G1 X125.216 Y128.939 F9000
G1 E5 F2400
;TYPE:Perimeter
G1 F1200
G1 X125.216 Y132.313 E.10579
G1 X73.842 Y132.313 E1.6108
G1 X73.842 Y128.939 E.10579
G1 X125.156 Y128.939 E1.60892
G1 X124.839 Y129.316 F9000
;TYPE:External perimeter
G1 F1200
G1 X124.839 Y131.936 E.08215
G1 X74.219 Y131.936 E1.58715
G1 X74.219 Y129.316 E.08215
G1 X124.779 Y129.316 E1.58527
G1 X125.239 Y129.309 F9000
G1 X125.216 Y128.313
;TYPE:Perimeter
G1 F1200
G1 X73.842 Y128.313 E1.6108
G1 X73.842 Y124.939 E.10579
G1 X125.216 Y124.939 E1.6108
G1 X125.216 Y128.253 E.10391
G1 X124.839 Y127.936 F9000
;TYPE:External perimeter
G1 F1200
G1 X74.219 Y127.936 E1.58715
G1 X74.219 Y125.316 E.08215
G1 X124.839 Y125.316 E1.58715
G1 X124.839 Y127.876 E.08027
G1 X125.033 Y128.286 F9000
G1 E-3.5 F3600
;WIPE_START
G1 F7200
G1 X121.839 Y127.879 E-1.425
;WIPE_END
G1 E-.075 F3600
G1 X85.342 Y119.617 F9000
G1 E5 F2400
;TYPE:Perimeter
G1 F1200
G1 X85.13 Y120.094 E.01639
G1 X84.799 Y120.549 E.01764
G1 X84.392 Y120.915 E.01715
G1 X84.131 Y121.085 E.00979
G1 X83.631 Y121.308 E.01715
G1 X83.081 Y121.425 E.01763
G1 X82.534 Y121.425 E.01715
G1 X82.225 Y121.376 E.00979
G1 X81.705 Y121.207 E.01714
G1 X81.218 Y120.926 E.01764
G1 X80.8 Y120.549 E.01764
G1 X80.47 Y120.094 E.01764
G1 X80.241 Y119.58 E.01763
G1 X80.124 Y119.03 E.01764
G1 X80.124 Y118.468 E.01763
G1 X80.241 Y117.918 E.01764
G1 X80.47 Y117.404 E.01764
G1 X80.8 Y116.949 E.01763
G1 X81.218 Y116.572 E.01763
G1 X81.705 Y116.291 E.01764
G1 X82.227 Y116.121 E.01722
G1 X82.552 Y116.072 E.0103
G1 X83.081 Y116.073 E.01659
G1 X83.631 Y116.19 E.01762
G1 X84.145 Y116.419 E.01764
G1 X84.6 Y116.749 E.01763
G1 X84.966 Y117.156 E.01715
G1 X85.136 Y117.418 E.00979
G1 X85.358 Y117.918 E.01715
G1 X85.475 Y118.468 E.01764
G1 X85.475 Y119.03 E.01763
G1 X85.363 Y119.56 E.017
G1 X84.998 Y119.463 F9000
;TYPE:External perimeter
G1 F1200
G1 X84.801 Y119.905 E.01515
G1 X84.517 Y120.295 E.01515
G1 X84.162 Y120.615 E.01498
G1 X83.95 Y120.753 E.00793
G1 X83.514 Y120.947 E.01497
G1 X83.041 Y121.048 E.01515
G1 X82.563 Y121.048 E.01498
G1 X82.314 Y121.008 E.00793
G1 X81.86 Y120.86 E.01497
G1 X81.441 Y120.619 E.01515
G1 X81.082 Y120.296 E.01515
G1 X80.798 Y119.905 E.01515
G1 X80.601 Y119.463 E.01515
G1 X80.501 Y118.991 E.01515
G1 X80.501 Y118.507 E.01515
G1 X80.601 Y118.035 E.01515
G1 X80.798 Y117.593 E.01515
G1 X81.082 Y117.202 E.01515
G1 X81.441 Y116.879 E.01515
G1 X81.859 Y116.637 E.01515
G1 X82.314 Y116.49 E.015
G1 X82.58 Y116.449 E.00842
G1 X83.041 Y116.45 E.01446
G1 X83.514 Y116.551 E.01514
G1 X83.955 Y116.747 E.01515
G1 X84.346 Y117.031 E.01515
G1 X84.666 Y117.386 E.01498
G1 X84.803 Y117.598 E.00793
G1 X84.998 Y118.035 E.01498
G1 X85.098 Y118.507 E.01515
G1 X85.098 Y118.991 E.01515
G1 X85.01 Y119.405 E.01327
G1 X85.265 Y119.76 F9000
G1 E-3.5 F3600
;WIPE_START
G1 F7200
G1 X84.801 Y119.905 E-.25743
G1 X84.517 Y120.295 E-.22953
G1 X84.162 Y120.615 E-.22689
G1 X83.95 Y120.753 E-.12014
G1 X83.514 Y120.947 E-.22685
G1 X83.041 Y121.048 E-.22952
G1 X82.758 Y121.048 E-.13464
;WIPE_END
G1 E-.075 F3600
G1 X125.216 Y109.945 F9000
G1 E5 F2400
;TYPE:Perimeter
G1 F1200
G1 X125.216 Y113.319 E.10579
G1 X73.842 Y113.319 E1.6108
G1 X73.842 Y109.945 E.10579
G1 X125.156 Y109.945 E1.60892
G1 X124.839 Y110.322 F9000
;TYPE:External perimeter
G1 F1200
G1 X124.839 Y112.942 E.08215
G1 X74.219 Y112.942 E1.58715
G1 X74.219 Y110.322 E.08215
G1 X124.779 Y110.322 E1.58527
G1 X125.239 Y110.315 F9000
G1 X125.216 Y109.319
;TYPE:Perimeter
G1 F1200
G1 X73.842 Y109.319 E1.6108
G1 X73.842 Y105.945 E.10579
G1 X125.216 Y105.945 E1.6108
G1 X125.216 Y109.259 E.10391
G1 X124.839 Y108.942 F9000
;TYPE:External perimeter
G1 F1200
G1 X74.219 Y108.942 E1.58715
G1 X74.219 Y106.322 E.08215
G1 X124.839 Y106.322 E1.58715
G1 X124.839 Y108.882 E.08027
G1 X125.033 Y109.292 F9000
G1 E-3.5 F3600
;WIPE_START
G1 F7200
G1 X121.839 Y108.886 E-1.425
;WIPE_END
G1 E-.075 F3600
G1 X125.216 Y105.319 F9000
G1 E5 F2400
;TYPE:Perimeter
G1 F1200
G1 X73.842 Y105.319 E1.6108
G1 X73.842 Y101.945 E.10579
G1 X125.216 Y101.945 E1.6108
G1 X125.216 Y105.259 E.10391
G1 X124.839 Y104.942 F9000
;TYPE:External perimeter
G1 F1200
G1 X74.219 Y104.942 E1.58715
G1 X74.219 Y102.322 E.08215
G1 X124.839 Y102.322 E1.58715
G1 X124.839 Y104.882 E.08027
G1 X125.033 Y105.292 F9000
G1 E-3.5 F3600
;WIPE_START
G1 F7200
G1 X121.839 Y104.886 E-1.425
;WIPE_END
G1 E-.075 F3600
G1 X125.216 Y101.319 F9000
G1 E5 F2400
;TYPE:Perimeter
G1 F1200
G1 X73.842 Y101.319 E1.6108
G1 X73.842 Y97.945 E.10579
G1 X125.216 Y97.945 E1.6108
