; generated by PrusaSlicer 2.4.2+x64 on 2022-07-09 at 03:30:27 UTC

; 

; external perimeters extrusion width = 0.45mm
; perimeters extrusion width = 0.45mm
; infill extrusion width = 0.45mm
; solid infill extrusion width = 0.45mm
; top infill extrusion width = 0.40mm
; first layer extrusion width = 0.42mm

M107
;TYPE:Custom
G90 ; use absolute coordinates
M83 ; extruder relative mode
M140 S60 ; set final bed temp
M104 S150 ; set temporary nozzle temp to prevent oozing during homing
G4 S10 ; allow partial nozzle warmup
G28 ; home all axis
G1 Z50 F240
G1 X2 Y10 F3000
M104 S225 ; set final nozzle temp
M190 S60 ; wait for bed temp to stabilize
M109 S225 ; wait for nozzle temp to stabilize
G1 Z0.28 F240
G92 E0
G1 Y140 E10 F1500 ; prime the nozzle
G1 X2.3 F5000
G92 E0
G1 Y10 E10 F1200 ; prime the nozzle
G92 E0
G21 ; set units to millimeters
G90 ; use absolute coordinates
M83 ; use relative distances for extrusion
; Filament gcode
M107
;LAYER_CHANGE
;Z:0.2
;HEIGHT:0.2
;BEFORE_LAYER_CHANGE
G92 E0
;0.2


G1 E-5 F3600
G1 Z.2 F9000
;AFTER_LAYER_CHANGE
;0.2
G1 X65.4 Y66.876
G1 E5 F2400
M204 S500
;TYPE:Skirt/Brim
;WIDTH:0.42
G1 F1200
G1 X66.112 Y66.3 E.02871
G1 X67.103 Y65.77 E.03523
G1 X68.183 Y65.458 E.03525
G1 X69.127 Y65.373 E.0297
G1 X151.104 Y65.378 E2.57034
G1 X152.217 Y65.532 E.03522
G1 X152.95 Y65.77 E.02417
G1 X153.941 Y66.3 E.03524
G1 X154.801 Y67.023 E.03523
G1 X155.377 Y67.735 E.02872
G1 X155.907 Y68.726 E.03523
G1 X156.218 Y69.806 E.03522
G1 X156.299 Y70.573 E.0242
G1 X156.251 Y149.861 E2.48601
G1 X155.855 Y151.444 E.05115
G1 X154.764 Y152.657 E.05115
G1 X152.873 Y153.235 E.06198
G1 X67.073 Y153.235 E2.6902
G1 X65.49 Y152.841 E.05115
G1 X64.277 Y151.751 E.05115
G1 X63.696 Y149.858 E.06207
G1 X63.75 Y70.741 E2.48066
G1 X63.834 Y69.812 E.02926
G1 X64.144 Y68.733 E.03518
G1 X64.666 Y67.751 E.03487
G1 X65.362 Y66.922 E.03395
G1 E-3.5 F3600
;WIPE_START
G1 F7200
G1 X66.112 Y66.3 E-.46298
G1 X67.103 Y65.77 E-.53367
G1 X67.969 Y65.52 E-.42835
;WIPE_END
G1 E-.075 F3600
G1 X78.64 Y113.007 F9000
G1 E5 F2400
;TYPE:Perimeter
G1 F1200
G1 X79.03 Y112.782 E.01411
G1 X79.417 Y112.713 E.01235
G1 X122.33 Y112.713 E1.34549
G1 X122.717 Y112.782 E.01235
G1 X123.084 Y112.994 E.01328
G1 X123.28 Y113.189 E.00868
G1 X123.492 Y113.556 E.01328
G1 X123.561 Y113.944 E.01234
G1 X123.561 Y114.856 E.02861
G1 X123.492 Y115.244 E.01234
G1 X123.267 Y115.633 E.01411
G1 X122.942 Y115.906 E.0133
G1 X122.692 Y116.023 E.00865
G1 X122.33 Y116.087 E.01152
G1 X79.417 Y116.087 E1.34549
G1 X79.03 Y116.018 E.01234
G1 X78.641 Y115.794 E.01405
G1 X78.379 Y115.485 E.01272
G1 X78.252 Y115.223 E.00912
G1 X78.186 Y114.856 E.01168
G1 X78.186 Y113.944 E.02861
G1 X78.251 Y113.582 E.01152
G1 X78.367 Y113.332 E.00865
G1 X78.601 Y113.053 E.01142
G1 X78.613 Y113.697 F9000
;TYPE:External perimeter
G1 F1200
G1 X78.688 Y113.536 E.00555
G1 X78.886 Y113.3 E.00965
G1 X79.161 Y113.142 E.00995
G1 X79.451 Y113.09 E.00923
G1 X122.296 Y113.09 E1.3434
G1 X122.586 Y113.142 E.00923
G1 X122.853 Y113.295 E.00965
G1 X122.978 Y113.421 E.00556
G1 X123.132 Y113.687 E.00965
G1 X123.183 Y113.977 E.00923
G1 X123.183 Y114.823 E.02652
G1 X123.132 Y115.113 E.00923
G1 X122.973 Y115.387 E.00994
G1 X122.737 Y115.585 E.00965
G1 X122.577 Y115.66 E.00555
G1 X122.296 Y115.71 E.00893
G1 X79.451 Y115.71 E1.3434
G1 X79.161 Y115.658 E.00923
G1 X78.887 Y115.5 E.00993
G1 X78.697 Y115.277 E.00918
G1 X78.614 Y115.105 E.00599
G1 X78.563 Y114.823 E.00899
G1 X78.563 Y113.977 E.02652
G1 X78.603 Y113.756 E.00705
G1 X78.494 Y113.566 F9000
G1 E-3.5 F3600
;WIPE_START
G1 F7200
G1 X78.688 Y113.536 E-.1119
G1 X78.886 Y113.3 E-.14626
G1 X79.161 Y113.142 E-.15067
G1 X79.451 Y113.09 E-.13978
G1 X81.296 Y113.09 E-.87639
;WIPE_END
G1 E-.075 F3600
G1 X78.64 Y119.007 F9000
G1 E5 F2400
;TYPE:Perimeter
G1 F1200
G1 X79.03 Y118.782 E.01411
G1 X79.417 Y118.713 E.01234
G1 X122.33 Y118.713 E1.34549
G1 X122.717 Y118.782 E.01234
G1 X123.107 Y119.007 E.0141
G1 X123.379 Y119.332 E.0133
G1 X123.496 Y119.582 E.00866
G1 X123.561 Y119.944 E.01152
G1 X123.561 Y120.856 E.02861
G1 X123.496 Y121.218 E.01152
G1 X123.379 Y121.468 E.00866
G1 X123.107 Y121.793 E.0133
G1 X122.717 Y122.018 E.0141
G1 X122.33 Y122.087 E.01234
G1 X79.417 Y122.087 E1.34549
G1 X79.03 Y122.018 E.01234
G1 X78.64 Y121.793 E.0141
G1 X78.367 Y121.468 E.01329
G1 X78.251 Y121.218 E.00866
G1 X78.186 Y120.856 E.01152
G1 X78.186 Y119.944 E.02861
G1 X78.251 Y119.582 E.01152
G1 X78.368 Y119.332 E.00866
G1 X78.601 Y119.053 E.01141
G1 X78.613 Y119.697 F9000
;TYPE:External perimeter
G1 F1200
G1 X78.688 Y119.536 E.00556
G1 X78.886 Y119.3 E.00965
G1 X79.161 Y119.142 E.00995
G1 X79.451 Y119.09 E.00923
G1 X122.296 Y119.09 E1.3434
G1 X122.586 Y119.142 E.00923
G1 X122.861 Y119.3 E.00994
G1 X123.059 Y119.536 E.00965
G1 X123.134 Y119.697 E.00556
G1 X123.183 Y119.977 E.00893
G1 X123.183 Y120.823 E.02652
G1 X123.134 Y121.103 E.00893
G1 X123.059 Y121.264 E.00556
G1 X122.861 Y121.5 E.00965
G1 X122.586 Y121.658 E.00994
G1 X122.296 Y121.71 E.00923
G1 X79.451 Y121.71 E1.3434
G1 X79.161 Y121.658 E.00923
G1 X78.886 Y121.5 E.00994
G1 X78.688 Y121.264 E.00965
G1 X78.613 Y121.103 E.00555
G1 X78.563 Y120.823 E.00893
G1 X78.563 Y119.977 E.02652
G1 X78.603 Y119.756 E.00705
G1 X78.494 Y119.566 F9000
G1 E-3.5 F3600
;WIPE_START
G1 F7200
G1 X78.688 Y119.536 E-.11197
G1 X78.886 Y119.3 E-.14622
G1 X79.161 Y119.142 E-.15067
G1 X79.451 Y119.09 E-.13975
G1 X81.296 Y119.09 E-.87639
;WIPE_END
G1 E-.075 F3600
G1 X78.64 Y125.007 F9000
G1 E5 F2400
;TYPE:Perimeter
G1 F1200
G1 X79.03 Y124.782 E.01411
G1 X79.417 Y124.713 E.01234
G1 X122.33 Y124.713 E1.34549
G1 X122.717 Y124.782 E.01234
G1 X123.107 Y125.007 E.0141
G1 X123.379 Y125.332 E.0133
G1 X123.496 Y125.582 E.00866
G1 X123.561 Y125.944 E.01152
G1 X123.561 Y126.856 E.02861
G1 X123.496 Y127.218 E.01152
G1 X123.379 Y127.468 E.00866
G1 X123.107 Y127.793 E.0133
G1 X122.717 Y128.018 E.0141
G1 X122.33 Y128.087 E.01234
G1 X79.417 Y128.087 E1.34549
G1 X79.03 Y128.018 E.01234
G1 X78.64 Y127.793 E.01411
G1 X78.367 Y127.468 E.0133
G1 X78.251 Y127.218 E.00865
G1 X78.186 Y126.856 E.01152
G1 X78.186 Y125.944 E.02861
G1 X78.251 Y125.582 E.01152
G1 X78.368 Y125.332 E.00866
G1 X78.601 Y125.053 E.01141
G1 X78.613 Y125.697 F9000
;TYPE:External perimeter
G1 F1200
G1 X78.688 Y125.536 E.00556
G1 X78.886 Y125.3 E.00965
G1 X79.161 Y125.142 E.00995
G1 X79.451 Y125.09 E.00923
G1 X122.296 Y125.09 E1.3434
G1 X122.586 Y125.142 E.00923
G1 X122.861 Y125.3 E.00994
G1 X123.059 Y125.536 E.00965
G1 X123.134 Y125.697 E.00556
G1 X123.183 Y125.977 E.00893
G1 X123.183 Y126.823 E.02652
G1 X123.134 Y127.103 E.00893
G1 X123.059 Y127.264 E.00556
G1 X122.861 Y127.5 E.00965
G1 X122.586 Y127.658 E.00994
G1 X122.296 Y127.71 E.00923
G1 X79.451 Y127.71 E1.3434
G1 X79.161 Y127.658 E.00922
G1 X78.886 Y127.5 E.00995
G1 X78.688 Y127.264 E.00966
G1 X78.613 Y127.103 E.00555
G1 X78.563 Y126.823 E.00893
G1 X78.563 Y125.977 E.02652
G1 X78.603 Y125.756 E.00705
G1 X78.494 Y125.566 F9000
G1 E-3.5 F3600
;WIPE_START
G1 F7200
G1 X78.688 Y125.536 E-.11197
G1 X78.886 Y125.3 E-.14622
G1 X79.161 Y125.142 E-.15067
G1 X79.451 Y125.09 E-.13975
G1 X81.296 Y125.09 E-.87639
;WIPE_END
G1 E-.075 F3600
G1 X78.64 Y131.007 F9000
G1 E5 F2400
;TYPE:Perimeter
G1 F1200
G1 X79.03 Y130.782 E.01411
G1 X79.417 Y130.713 E.01234
G1 X122.33 Y130.713 E1.34549
G1 X122.717 Y130.782 E.01235
G1 X123.107 Y131.007 E.0141
G1 X123.379 Y131.332 E.0133
G1 X123.496 Y131.582 E.00866
G1 X123.561 Y131.944 E.01152
G1 X123.561 Y132.856 E.02861
G1 X123.496 Y133.218 E.01152
G1 X123.379 Y133.468 E.00866
G1 X123.107 Y133.793 E.0133
G1 X122.717 Y134.018 E.0141
G1 X122.33 Y134.087 E.01234
G1 X79.417 Y134.087 E1.34549
G1 X79.03 Y134.018 E.01234
G1 X78.64 Y133.793 E.01411
G1 X78.367 Y133.468 E.0133
G1 X78.251 Y133.218 E.00865
G1 X78.186 Y132.856 E.01152
G1 X78.186 Y131.944 E.02861
G1 X78.251 Y131.582 E.01152
G1 X78.367 Y131.332 E.00866
G1 X78.601 Y131.053 E.01141
G1 X78.613 Y131.697 F9000
;TYPE:External perimeter
G1 F1200
G1 X78.688 Y131.536 E.00556
G1 X78.886 Y131.3 E.00965
G1 X79.161 Y131.142 E.00994
G1 X79.451 Y131.09 E.00922
G1 X122.296 Y131.09 E1.3434
G1 X122.586 Y131.142 E.00923
G1 X122.861 Y131.3 E.00994
G1 X123.059 Y131.536 E.00965
G1 X123.134 Y131.697 E.00556
G1 X123.183 Y131.977 E.00893
G1 X123.183 Y132.823 E.02652
G1 X123.134 Y133.103 E.00893
G1 X123.059 Y133.264 E.00556
G1 X122.861 Y133.5 E.00965
G1 X122.586 Y133.658 E.00994
G1 X122.296 Y133.71 E.00923
G1 X79.451 Y133.71 E1.3434
G1 X79.161 Y133.658 E.00922
G1 X78.886 Y133.5 E.00995
G1 X78.688 Y133.264 E.00966
G1 X78.613 Y133.103 E.00555
G1 X78.563 Y132.823 E.00893
G1 X78.563 Y131.977 E.02652
G1 X78.603 Y131.756 E.00705
G1 X78.494 Y131.566 F9000
G1 E-3.5 F3600
;WIPE_START
G1 F7200
G1 X78.688 Y131.536 E-.11195
G1 X78.886 Y131.3 E-.14625
G1 X79.161 Y131.142 E-.15066
G1 X79.451 Y131.09 E-.13975
G1 X81.296 Y131.09 E-.87639
;WIPE_END
G1 E-.075 F3600
G1 X78.64 Y137.007 F9000
G1 E5 F2400
;TYPE:Perimeter
G1 F1200
G1 X79.03 Y136.782 E.01411
G1 X79.417 Y136.713 E.01234
G1 X122.33 Y136.713 E1.34549
G1 X122.717 Y136.782 E.01235
G1 X123.107 Y137.007 E.0141
G1 X123.379 Y137.332 E.0133
G1 X123.496 Y137.582 E.00866
G1 X123.561 Y137.944 E.01152
G1 X123.561 Y138.856 E.02861
G1 X123.496 Y139.218 E.01152
G1 X123.379 Y139.468 E.00866
G1 X123.107 Y139.793 E.0133
G1 X122.717 Y140.018 E.0141
G1 X122.33 Y140.087 E.01234
G1 X79.417 Y140.087 E1.34549
G1 X79.03 Y140.018 E.01234
G1 X78.64 Y139.793 E.01411
G1 X78.367 Y139.468 E.0133
G1 X78.251 Y139.218 E.00865
G1 X78.186 Y138.856 E.01152
G1 X78.186 Y137.944 E.02861
G1 X78.251 Y137.582 E.01152
G1 X78.367 Y137.332 E.00866
G1 X78.601 Y137.053 E.01141
G1 X78.613 Y137.697 F9000
;TYPE:External perimeter
G1 F1200
G1 X78.688 Y137.536 E.00556
G1 X78.886 Y137.3 E.00965
G1 X79.161 Y137.142 E.00994
G1 X79.451 Y137.09 E.00922
G1 X122.296 Y137.09 E1.3434
G1 X122.586 Y137.142 E.00923
G1 X122.861 Y137.3 E.00994
G1 X123.059 Y137.536 E.00965
G1 X123.134 Y137.697 E.00556
G1 X123.183 Y137.977 E.00893
G1 X123.183 Y138.823 E.02652
G1 X123.134 Y139.103 E.00893
G1 X123.059 Y139.264 E.00556
G1 X122.861 Y139.5 E.00965
G1 X122.586 Y139.658 E.00994
G1 X122.296 Y139.71 E.00923
G1 X79.451 Y139.71 E1.3434
G1 X79.161 Y139.658 E.00922
G1 X78.886 Y139.5 E.00995
G1 X78.688 Y139.264 E.00966
G1 X78.613 Y139.103 E.00555
G1 X78.563 Y138.823 E.00893
G1 X78.563 Y137.977 E.02652
G1 X78.603 Y137.756 E.00705
G1 X78.494 Y137.566 F9000
G1 E-3.5 F3600
;WIPE_START
G1 F7200
G1 X78.688 Y137.536 E-.11195
G1 X78.886 Y137.3 E-.14625
G1 X79.161 Y137.142 E-.15066
G1 X79.451 Y137.09 E-.13975
G1 X81.296 Y137.09 E-.87639
;WIPE_END
G1 E-.075 F3600
G1 X78.64 Y109.793 F9000
G1 E5 F2400
;TYPE:Perimeter
G1 F1200
G1 X78.367 Y109.468 E.01329
G1 X78.251 Y109.218 E.00866
G1 X78.186 Y108.856 E.01152
G1 X78.186 Y107.944 E.02861
G1 X78.251 Y107.582 E.01152
G1 X78.367 Y107.332 E.00865
G1 X78.64 Y107.007 E.0133
G1 X79.03 Y106.782 E.01411
G1 X79.417 Y106.713 E.01235
G1 X122.33 Y106.713 E1.34549
G1 X122.717 Y106.782 E.01235
G1 X123.084 Y106.994 E.01328
G1 X123.28 Y107.189 E.00868
G1 X123.492 Y107.556 E.01328
G1 X123.561 Y107.944 E.01234
G1 X123.561 Y108.856 E.02861
G1 X123.492 Y109.244 E.01234
G1 X123.267 Y109.633 E.01411
G1 X122.942 Y109.906 E.01329
G1 X122.692 Y110.023 E.00866
G1 X122.33 Y110.087 E.01152
G1 X79.417 Y110.087 E1.34549
G1 X79.03 Y110.018 E.01235
G1 X78.692 Y109.823 E.01223
G1 X78.613 Y109.103 F9000
;TYPE:External perimeter
G1 F1200
G1 X78.563 Y108.823 E.00893
G1 X78.563 Y107.977 E.02652
G1 X78.613 Y107.697 E.00893
G1 X78.688 Y107.536 E.00555
G1 X78.886 Y107.3 E.00965
G1 X79.161 Y107.142 E.00995
G1 X79.451 Y107.09 E.00923
G1 X122.296 Y107.09 E1.3434
G1 X122.586 Y107.142 E.00923
G1 X122.853 Y107.295 E.00965
G1 X122.978 Y107.421 E.00556
G1 X123.132 Y107.687 E.00965
G1 X123.183 Y107.977 E.00923
G1 X123.183 Y108.823 E.02652
G1 X123.132 Y109.113 E.00923
G1 X122.973 Y109.387 E.00994
G1 X122.737 Y109.585 E.00965
G1 X122.577 Y109.66 E.00555
G1 X122.296 Y109.71 E.00893
G1 X79.451 Y109.71 E1.3434
G1 X79.161 Y109.658 E.00923
G1 X78.886 Y109.5 E.00995
G1 X78.688 Y109.264 E.00965
G1 X78.639 Y109.158 E.00367
G1 X78.335 Y109.045 F9000
G1 E-3.5 F3600
;WIPE_START
G1 F7200
G1 X78.563 Y108.823 E-.16301
G1 X78.563 Y107.977 E-.40178
G1 X78.613 Y107.697 E-.13533
G1 X78.688 Y107.536 E-.08412
G1 X78.886 Y107.3 E-.14626
G1 X79.161 Y107.142 E-.15067
G1 X79.451 Y107.09 E-.13978
G1 X79.88 Y107.09 E-.20406
;WIPE_END
G1 E-.075 F3600
G1 X78.641 Y103.794 F9000
G1 E5 F2400
;TYPE:Perimeter
G1 F1200
G1 X78.379 Y103.485 E.01272
G1 X78.252 Y103.223 E.00912
G1 X78.186 Y102.856 E.01168
G1 X78.186 Y101.944 E.02861
G1 X78.251 Y101.582 E.01152
G1 X78.367 Y101.332 E.00865
G1 X78.64 Y101.007 E.0133
G1 X79.03 Y100.782 E.01411
G1 X79.417 Y100.713 E.01235
G1 X122.33 Y100.713 E1.34549
G1 X122.717 Y100.782 E.01235
G1 X123.084 Y100.994 E.01328
G1 X123.28 Y101.189 E.00868
G1 X123.492 Y101.556 E.01328
G1 X123.561 Y101.944 E.01234
G1 X123.561 Y102.856 E.02861
G1 X123.492 Y103.244 E.01234
G1 X123.267 Y103.633 E.01411
G1 X122.942 Y103.906 E.0133
G1 X122.692 Y104.023 E.00865
G1 X122.33 Y104.087 E.01152
G1 X79.417 Y104.087 E1.34549
G1 X79.03 Y104.018 E.01234
G1 X78.693 Y103.824 E.01217
G1 X78.614 Y103.105 F9000
;TYPE:External perimeter
G1 F1200
G1 X78.563 Y102.823 E.00899
G1 X78.563 Y101.977 E.02652
G1 X78.613 Y101.697 E.00893
G1 X78.688 Y101.536 E.00555
G1 X78.886 Y101.3 E.00965
G1 X79.161 Y101.142 E.00995
G1 X79.451 Y101.09 E.00923
G1 X122.296 Y101.09 E1.3434
G1 X122.586 Y101.142 E.00923
G1 X122.853 Y101.295 E.00965
G1 X122.978 Y101.421 E.00556
G1 X123.132 Y101.687 E.00965
G1 X123.183 Y101.977 E.00923
G1 X123.183 Y102.823 E.02652
G1 X123.132 Y103.113 E.00923
G1 X122.973 Y103.387 E.00994
G1 X122.737 Y103.585 E.00965
G1 X122.577 Y103.66 E.00555
G1 X122.296 Y103.71 E.00893
G1 X79.451 Y103.71 E1.3434
G1 X79.161 Y103.658 E.00923
G1 X78.887 Y103.5 E.00993
G1 X78.697 Y103.277 E.00918
G1 X78.64 Y103.159 E.0041
G1 X78.333 Y103.047 F9000
G1 E-3.5 F3600
;WIPE_START
G1 F7200
G1 X78.563 Y102.823 E-.16377
G1 X78.563 Y101.977 E-.40178
G1 X78.613 Y101.697 E-.13532
G1 X78.688 Y101.536 E-.08412
G1 X78.886 Y101.3 E-.14626
G1 X79.161 Y101.142 E-.15067
G1 X79.451 Y101.09 E-.13978
G1 X79.879 Y101.09 E-.2033
;WIPE_END
G1 E-.075 F3600
G1 X81.902 Y81.557 F9000
G1 E5 F2400
;TYPE:Perimeter
G1 F1200
G1 X81.315 Y81.565 E.01842
G1 X80.994 Y81.513 E.01019
G1 X80.488 Y81.347 E.01671
G1 X80.001 Y81.066 E.01762
G1 X79.583 Y80.69 E.01764
G1 X79.252 Y80.235 E.01764
G1 X79.024 Y79.721 E.01763
G1 X78.907 Y79.171 E.01764
G1 X78.907 Y78.608 E.01763
G1 X79.024 Y78.058 E.01764
G1 X79.252 Y77.544 E.01764
G1 X79.583 Y77.089 E.01763
G1 X80.001 Y76.713 E.01764
G1 X80.488 Y76.432 E.01763
G1 X81.01 Y76.262 E.01721
G1 X81.331 Y76.213 E.01018
G1 X81.864 Y76.214 E.01671
G1 X82.414 Y76.331 E.01762
G1 X82.928 Y76.56 E.01764
G1 X83.37 Y76.881 E.01715
G1 X83.591 Y77.102 E.00979
G1 X83.912 Y77.544 E.01715
G1 X84.141 Y78.058 E.01764
G1 X84.258 Y78.608 E.01764
G1 X84.258 Y79.171 E.01764
G1 X84.141 Y79.721 E.01764
G1 X83.912 Y80.235 E.01763
G1 X83.582 Y80.69 E.01764
G1 X83.175 Y81.056 E.01715
G1 X82.913 Y81.226 E.00979
G1 X82.414 Y81.448 E.01715
G1 X81.961 Y81.545 E.01451
G1 X81.824 Y81.188 F9000
;TYPE:External perimeter
G1 F1200
G1 X81.346 Y81.188 E.015
G1 X81.084 Y81.145 E.00832
G1 X80.642 Y81.001 E.01458
G1 X80.224 Y80.76 E.01514
G1 X79.865 Y80.436 E.01515
G1 X79.581 Y80.045 E.01515
G1 X79.384 Y79.604 E.01515
G1 X79.284 Y79.131 E.01515
G1 X79.284 Y78.648 E.01515
G1 X79.384 Y78.175 E.01515
G1 X79.581 Y77.734 E.01515
G1 X79.865 Y77.343 E.01515
G1 X80.224 Y77.02 E.01515
G1 X80.642 Y76.778 E.01515
G1 X81.097 Y76.63 E.015
G1 X81.359 Y76.59 E.00832
G1 X81.824 Y76.591 E.01457
G1 X82.297 Y76.691 E.01514
G1 X82.738 Y76.888 E.01515
G1 X83.124 Y77.169 E.01498
G1 X83.303 Y77.348 E.00793
G1 X83.584 Y77.734 E.01497
G1 X83.78 Y78.175 E.01515
G1 X83.881 Y78.648 E.01515
G1 X83.881 Y79.131 E.01515
G1 X83.78 Y79.604 E.01515
G1 X83.584 Y80.045 E.01515
G1 X83.3 Y80.436 E.01515
G1 X82.945 Y80.756 E.01498
G1 X82.733 Y80.894 E.00793
G1 X82.297 Y81.088 E.01497
G1 X81.883 Y81.176 E.01327
G1 X81.661 Y81.554 F9000
G1 E-3.5 F3600
;WIPE_START
G1 F7200
G1 X81.346 Y81.188 E-.25512
